!!!COM: Bach, Johann Sebastian
!!!OPR: Six Concerts Avec plusieurs ... le prince regnant d'Anhalt-Coethen
!!!OTL: Brandenburgische Konzerte F
!!!XEN: Brandenburg Concerto No. 2 in F major.
!!!OMV: Movement 3.
!!!SCT: BWV 1047
!!!YEC: Copyright 1994, Center for Computer Assisted Research in the Humanities
!!!YEM: Rights to all derivative electronic formats reserved.
!!!YEM: Refer to licensing agreement for further details.
!! For the following instrumentation: Tromba, Flauto Dolce (soprano),
!!    Oboe, Violino, Violino di ripieno I & II, Viola di ripieno,
!!    Violoncello, Violone di ripieno, Cembalo all'unisono
!! Allegro assai.
**kern	**kern	**kern	**kern	**kern	**kern	**kern	**kern	**kern	**kern
*ICklav	*ICstr	*ICstr	*ICstr	*ICstr	*ICstr	*ICstr	*ICww	*ICww	*ICbras
*Icemba	*Icello	*Ivioln	*Iviola	*Ivioln	*Ivioln	*Ivioln	*Ioboe	*Iftlds	*Itromp
*IGcont	*IGcont	*	*	*	*	*	*	*	*
!cembal	!'cello	!Bd'rip	!vla'ri	!v'lin2	!v'lin1	!v'lino	!oboe	!flauto	!tromba
*k[b-]	*k[b-]	*k[b-]	*k[b-]	*k[b-]	*k[b-]	*k[b-]	*k[b-]	*k[b-]	*k[]
*F:	*F:	*F:	*F:	*F:	*F:	*F:	*F:	*F:	*F:
*M2/4	*M2/4	*M2/4	*M2/4	*M2/4	*M2/4	*M2/4	*M2/4	*M2/4	*M2/4
*MM66	*MM66	*MM66	*MM66	*MM66	*MM66	*MM66	*MM66	*MM66	*MM66
*clefF4	*clefF4	*clefF4	*clefC3	*clefG2	*clefG2	*clefG2	*clefG2	*clefG2	*clefG2
=1-	=1-	=1-	=1-	=1-	=1-	=1-	=1-	=1-	=1-
8F\L	8F\L	2r	2r	2r	2r	2r	2r	2r	8ff\L
8G\J	8G\J	.	.	.	.	.	.	.	8ccc\J
8A\L	8A\L	.	.	.	.	.	.	.	8cccT\L
16G\LL	16G\LL	.	.	.	.	.	.	.	16bb-\LL
16A\JJ	16A\JJ	.	.	.	.	.	.	.	16ccc\JJ
=2	=2	=2	=2	=2	=2	=2	=2	=2	=2
8B-\L	8B-\L	2r	2r	2r	2r	2r	2r	2r	8ddd\L
16A\LL	16A\LL	.	.	.	.	.	.	.	16ccc\LL
16G\JJ	16G\JJ	.	.	.	.	.	.	.	16bb-\JJ
8A\L	8A\L	.	.	.	.	.	.	.	8ccc\L
16F\LL	16F\LL	.	.	.	.	.	.	.	8fff\J
16G\JJ	16G\JJ	.	.	.	.	.	.	.	.
=3	=3	=3	=3	=3	=3	=3	=3	=3	=3
8A\L	8A\L	2r	2r	2r	2r	2r	2r	2r	8cccT\L
16F\LL	16F\LL	.	.	.	.	.	.	.	16aa\LL
16G\JJ	16G\JJ	.	.	.	.	.	.	.	16bb-\JJ
8A\L	8A\L	.	.	.	.	.	.	.	8cccT\L
16G\LL	16G\LL	.	.	.	.	.	.	.	16bb-\LL
16A\JJ	16A\JJ	.	.	.	.	.	.	.	16ccc\JJ
=4	=4	=4	=4	=4	=4	=4	=4	=4	=4
8B-\L	8B-\L	2r	2r	2r	2r	2r	2r	2r	8ddd\L
16A\LL	16A\LL	.	.	.	.	.	.	.	16ccc\LL
16G\JJ	16G\JJ	.	.	.	.	.	.	.	16bb-\JJ
8A\L	8A\L	.	.	.	.	.	.	.	16ccc\LL
.	.	.	.	.	.	.	.	.	16bb-\
8d\J	8d\J	.	.	.	.	.	.	.	16aa\
.	.	.	.	.	.	.	.	.	16ccc\JJ
=5	=5	=5	=5	=5	=5	=5	=5	=5	=5
8G\L	8G\L	2r	2r	2r	2r	2r	2r	2r	16bb-\LL
.	.	.	.	.	.	.	.	.	16aa\
8c\	8c\	.	.	.	.	.	.	.	16gg\
.	.	.	.	.	.	.	.	.	16bb-\JJ
8F\	8F\	.	.	.	.	.	.	.	16aa\LL
.	.	.	.	.	.	.	.	.	16gg\
8A\J	8A\J	.	.	.	.	.	.	.	16ff\
.	.	.	.	.	.	.	.	.	16aa\JJ
=6	=6	=6	=6	=6	=6	=6	=6	=6	=6
8c\L	8c\L	2r	2r	2r	2r	2r	2r	2r	16gg\LL
.	.	.	.	.	.	.	.	.	16ff\
8F\	8F\	.	.	.	.	.	.	.	16gg\
.	.	.	.	.	.	.	.	.	16aa\JJ
8E\	8E\	.	.	.	.	.	.	.	16bb-\LL
.	.	.	.	.	.	.	.	.	16aa\
8F\J	8F\J	.	.	.	.	.	.	.	16gg\
.	.	.	.	.	.	.	.	.	16ff\JJ
=7	=7	=7	=7	=7	=7	=7	=7	=7	=7
8C/L	8C/L	2r	2r	2r	2r	2r	8cc\L	2r	8gg\L
8D/J	8D/J	.	.	.	.	.	8gg\J	.	8cc\J
8E\L	8E\L	.	.	.	.	.	8ggT\L	.	8ccc\
16D\LL	16D\LL	.	.	.	.	.	16ff\LL	.	8r
16E\JJ	16E\JJ	.	.	.	.	.	16gg\JJ	.	.
=8	=8	=8	=8	=8	=8	=8	=8	=8	=8
8F\L	8F\L	2r	2r	2r	2r	2r	8aat\L	2r	8ccc\
16E\LL	16E\LL	.	.	.	.	.	16gg\LL	.	8r
16D\JJ	16D\JJ	.	.	.	.	.	16ff\JJ	.	.
8E\L	8E\L	.	.	.	.	.	8gg\L	.	8ccc\
16C\LL	16C\LL	.	.	.	.	.	8ccc\J	.	8r
16D\JJ	16D\JJ	.	.	.	.	.	.	.	.
=9	=9	=9	=9	=9	=9	=9	=9	=9	=9
8E\L	8E\L	2r	2r	2r	2r	2r	8ggT\L	2r	8ccc\
16C\LL	16C\LL	.	.	.	.	.	16ee\LL	.	8r
16D\JJ	16D\JJ	.	.	.	.	.	16ff\JJ	.	.
8E\L	8E\L	.	.	.	.	.	8ggT\L	.	8ccc\
16D\LL	16D\LL	.	.	.	.	.	16ff\LL	.	8r
16E\JJ	16E\JJ	.	.	.	.	.	16gg\JJ	.	.
=10	=10	=10	=10	=10	=10	=10	=10	=10	=10
8F\	8F\	2r	2r	2r	2r	2r	8aat\L	2r	8ccc\
8r	8r	.	.	.	.	.	16gg\LL	.	4ddd\
.	.	.	.	.	.	.	16ff\JJ	.	.
8E\	8E\	.	.	.	.	.	16gg\LL	.	.
.	.	.	.	.	.	.	16ff\	.	.
8r	8r	.	.	.	.	.	16ee\	.	[8ccc\
.	.	.	.	.	.	.	16gg\JJ	.	.
=11	=11	=11	=11	=11	=11	=11	=11	=11	=11
8D\	8D\	2r	2r	2r	2r	2r	16ff\LL	2r	8ccc\L]
.	.	.	.	.	.	.	16ee\	.	.
8r	8r	.	.	.	.	.	16dd\	.	8bbn\J
.	.	.	.	.	.	.	16ff\JJ	.	.
8C/	8C/	.	.	.	.	.	16ee\LL	.	16ccc\LL
.	.	.	.	.	.	.	16dd\	.	16bbn\
8r	8r	.	.	.	.	.	16cc\	.	16aa\
.	.	.	.	.	.	.	16ee\JJ	.	16ccc\JJ
=12	=12	=12	=12	=12	=12	=12	=12	=12	=12
8G\L	8G\L	2r	2r	2r	2r	2r	16dd\LL	2r	16bbn\LL
.	.	.	.	.	.	.	16cc\	.	16aa\
8C\	8C\	.	.	.	.	.	16dd\	.	16bbn\
.	.	.	.	.	.	.	16ee\JJ	.	16ccc\JJ
8BB\	8BB\	.	.	.	.	.	16ff\LL	.	16ddd\LL
.	.	.	.	.	.	.	16ee\	.	16ccc\
8C\J	8C\J	.	.	.	.	.	16dd\	.	16bbn\
.	.	.	.	.	.	.	16cc\JJ	.	16aa\JJ
=13	=13	=13	=13	=13	=13	=13	=13	=13	=13
4GG/	4GG/	2r	2r	2r	2r	2r	8dd\L	2r	16bbn\LL
.	.	.	.	.	.	.	.	.	16aa\
.	.	.	.	.	.	.	8g\J	.	16gg\
.	.	.	.	.	.	.	.	.	16aa\JJ
8r	8r	.	.	.	.	.	[4gg\	.	16bbn\LL
.	.	.	.	.	.	.	.	.	16ccc\
8G\	8G\	.	.	.	.	.	.	.	16aa\
.	.	.	.	.	.	.	.	.	16bbn\JJ
=14	=14	=14	=14	=14	=14	=14	=14	=14	=14
8A\L	8A\L	2r	2r	2r	2r	2r	8gg\L]	2r	16ccc\LL
.	.	.	.	.	.	.	.	.	16ddd\
16G\LL	16G\LL	.	.	.	.	.	16ff\LL	.	16bbn\
16A\JJ	16A\JJ	.	.	.	.	.	16ee\JJ	.	16ccc\JJ
8B\L	8B\L	.	.	.	.	.	8ff\L	.	16ddd\LL
.	.	.	.	.	.	.	.	.	16bbn\
16A\LL	16A\LL	.	.	.	.	.	8ff\J	.	16ccc\
16B\JJ	16B\JJ	.	.	.	.	.	.	.	16ddd\JJ
=15	=15	=15	=15	=15	=15	=15	=15	=15	=15
4c\	4c\	2r	2r	2r	2r	2r	16ee\LL	2r	8gg\L
.	.	.	.	.	.	.	16dd\	.	.
.	.	.	.	.	.	.	16cc\	.	8cc\J
.	.	.	.	.	.	.	16dd\JJ	.	.
8r	8r	.	.	.	.	.	16ee\LL	.	[4ccc\
.	.	.	.	.	.	.	16ff\	.	.
8C/	8C/	.	.	.	.	.	16dd\	.	.
.	.	.	.	.	.	.	16ee\JJ	.	.
=16	=16	=16	=16	=16	=16	=16	=16	=16	=16
8D/L	8D/L	2r	2r	2r	2r	2r	16ff\LL	2r	8ccc\L]
.	.	.	.	.	.	.	16gg\	.	.
16C/LL	16C/LL	.	.	.	.	.	16ee\	.	16bb-\LL
16D/JJ	16D/JJ	.	.	.	.	.	16ff\JJ	.	16aa\JJ
8E\L	8E\L	.	.	.	.	.	16gg\LL	.	8bb-\L
.	.	.	.	.	.	.	16ee\	.	.
16D\LL	16D\LL	.	.	.	.	.	16ff\	.	8bb-\J
16E\JJ	16E\JJ	.	.	.	.	.	16gg\JJ	.	.
=17	=17	=17	=17	=17	=17	=17	=17	=17	=17
4F\	4F\	2r	2r	2r	2r	2r	16cc\LL	2r	16aa\LL
.	.	.	.	.	.	.	16b-\	.	16gg\
.	.	.	.	.	.	.	16a\	.	16ff\
.	.	.	.	.	.	.	16b-\JJ	.	16gg\JJ
8r	8r	.	.	.	.	.	16cc\LL	.	16aa\LL
.	.	.	.	.	.	.	16dd\	.	16bb-\
[8F\	[8F\	.	.	.	.	.	16b-\	.	16gg\
.	.	.	.	.	.	.	16cc\JJ	.	16aa\JJ
=18	=18	=18	=18	=18	=18	=18	=18	=18	=18
8F\L]	8F\L]	2r	2r	2r	2r	2r	16dd\LL	2r	16bb-\LL
.	.	.	.	.	.	.	16ee-\	.	16ccc\
8E-\	8E-\	.	.	.	.	.	16cc\	.	16aa\
.	.	.	.	.	.	.	16dd\JJ	.	16bb-\JJ
8D\	8D\	.	.	.	.	.	16ee-\LL	.	16ccc\LL
.	.	.	.	.	.	.	16ff\	.	16ddd\
8C\J	8C\J	.	.	.	.	.	16dd\	.	16bb-\
.	.	.	.	.	.	.	16ee-\JJ	.	16ccc\JJ
=19	=19	=19	=19	=19	=19	=19	=19	=19	=19
4BB-/	4BB-/	2r	2r	2r	2r	2r	16ff\LL	2r	16ddd\LL
.	.	.	.	.	.	.	16ee-\	.	16ccc\
.	.	.	.	.	.	.	16ff\	.	16ddd\
.	.	.	.	.	.	.	16gg\JJ	.	16eee-\JJ
8r	8r	.	.	.	.	.	16ff\LL	.	16ddd\LL
.	.	.	.	.	.	.	16dd\	.	16ccc\
8B-\	8B-\	.	.	.	.	.	16gg\	.	16bb-\
.	.	.	.	.	.	.	16ff\JJ	.	16aa\JJ
=20	=20	=20	=20	=20	=20	=20	=20	=20	=20
8c\L	8c\L	2r	2r	2r	2r	2r	16ee\LL	2r	16gg\LL
.	.	.	.	.	.	.	16dd\	.	16ff\
8B-\	8B-\	.	.	.	.	.	16ee\	.	16gg\
.	.	.	.	.	.	.	16ff\JJ	.	16aa\JJ
8A\	8A\	.	.	.	.	.	16gg\LL	.	16bb-\LL
.	.	.	.	.	.	.	16ff\	.	16aa\
8G\J	8G\J	.	.	.	.	.	16ee\	.	16bb-\
.	.	.	.	.	.	.	16gg\JJ	.	16gg\JJ
=21	=21	=21	=21	=21	=21	=21	=21	=21	=21
8F\L	8F\L	2r	2r	2r	2r	8f/L	8cc\	2r	8aa\L
16A\LL	16A\LL	.	.	.	.	8cc/J	8r	.	16ff\LL
16G\JJ	16G\JJ	.	.	.	.	.	.	.	16gg\JJ
8F/L	8F/L	.	.	.	.	8ccT\L	8ff\	.	8aa\L
8FF/J	8FF/J	.	.	.	.	16b-\LL	8r	.	16gg\LL
.	.	.	.	.	.	16cc\JJ	.	.	16aa\JJ
=22	=22	=22	=22	=22	=22	=22	=22	=22	=22
8BB-\L	8BB-\L	2r	2r	2r	2r	8dd\L	8ff\	2r	8bb-\L
8B-\J	8B-\J	.	.	.	.	16cc\LL	8r	.	16aa\LL
.	.	.	.	.	.	16b-\JJ	.	.	16gg\JJ
8F\L	8F\L	.	.	.	.	8cc\L	8ff\	.	8aa\L
16A\LL	16A\LL	.	.	.	.	8ff\J	8r	.	16ff\LL
16G\JJ	16G\JJ	.	.	.	.	.	.	.	16gg\JJ
=23	=23	=23	=23	=23	=23	=23	=23	=23	=23
8F\L	8F\L	2r	2r	2r	2r	8cc\L	8ff\	2r	8aa\L
16A\LL	16A\LL	.	.	.	.	16a\LL	8r	.	16ff\LL
16G\JJ	16G\JJ	.	.	.	.	16b-\JJ	.	.	16gg\JJ
8F/L	8F/L	.	.	.	.	8cc\L	8ff\	.	8aa\L
8FF/J	8FF/J	.	.	.	.	16b-\LL	8r	.	16gg\LL
.	.	.	.	.	.	16cc\JJ	.	.	16aa\JJ
=24	=24	=24	=24	=24	=24	=24	=24	=24	=24
8BB-/	8BB-/	2r	2r	2r	2r	8dd\L	8ff\	2r	8bb-\
8r	8r	.	.	.	.	16cc\LL	4gg\	.	8r
.	.	.	.	.	.	16b-\JJ	.	.	.
8F\	8F\	.	.	.	.	16cc\LL	.	.	8aa\
.	.	.	.	.	.	16b-\	.	.	.
8r	8r	.	.	.	.	16a\	[8ff\	.	8r
.	.	.	.	.	.	16cc\JJ	.	.	.
=25	=25	=25	=25	=25	=25	=25	=25	=25	=25
8G\L	8G\L	2r	2r	2r	2r	16b-/LL	8ff\L]	2r	8gg\
.	.	.	.	.	.	16a/	.	.	.
8GG\	8GG\	.	.	.	.	16g/	8ee\J	.	8r
.	.	.	.	.	.	16b-/JJ	.	.	.
8AA\	8AA\	.	.	.	.	16a/LL	16ff\LL	.	8ff\
.	.	.	.	.	.	16g/	16ee\	.	.
8BB-\J	8BB-\J	.	.	.	.	16f/	16dd\	.	8r
.	.	.	.	.	.	16a/JJ	16ff\JJ	.	.
=26	=26	=26	=26	=26	=26	=26	=26	=26	=26
8C\L	8C\L	2r	2r	2r	2r	16g/LL	16ee\LL	2r	8cc/
.	.	.	.	.	.	16f/	16dd\	.	.
8c\	8c\	.	.	.	.	16g/	16ee\	.	8r
.	.	.	.	.	.	16a/JJ	16ff\JJ	.	.
8A\	8A\	.	.	.	.	16b-/LL	16gg\LL	.	8f/
.	.	.	.	.	.	16a/	16ff\	.	.
8F\J	8F\J	.	.	.	.	16g/	16ee\	.	8r
.	.	.	.	.	.	16f/JJ	16dd\JJ	.	.
=27	=27	=27	=27	=27	=27	=27	=27	=27	=27
8C/L	8C/L	2r	2r	2r	2r	8g/L	8ee\L	8cc\L	8cc/
16E/LL	16E/LL	.	.	.	.	8c/J	16cc\LL	8gg\J	8r
16D/JJ	16D/JJ	.	.	.	.	.	16dd\JJ	.	.
8C/L	8C/L	.	.	.	.	8cc\	8ee\L	8ggT\L	4r
8CC/J	8CC/J	.	.	.	.	8r	16dd\LL	16ff\LL	.
.	.	.	.	.	.	.	16ee\JJ	16gg\JJ	.
=28	=28	=28	=28	=28	=28	=28	=28	=28	=28
8FF/L	8FF/L	2r	2r	2r	2r	8cc\	8ff\L	8aat\L	2r
8F/J	8F/J	.	.	.	.	8r	16ee\LL	16gg\LL	.
.	.	.	.	.	.	.	16dd\JJ	16ff\JJ	.
8C/L	8C/L	.	.	.	.	8cc\	8ee\L	8gg\L	.
16E/LL	16E/LL	.	.	.	.	8r	16cc\LL	8ccc\J	.
16D/JJ	16D/JJ	.	.	.	.	.	16dd\JJ	.	.
=29	=29	=29	=29	=29	=29	=29	=29	=29	=29
8C/L	8C/L	2r	2r	2r	2r	8cc\	8ee\L	8ggT\L	2r
16E/LL	16E/LL	.	.	.	.	8r	16cc\LL	16ee\LL	.
16D/JJ	16D/JJ	.	.	.	.	.	16dd\JJ	16ff\JJ	.
8C/L	8C/L	.	.	.	.	8cc\	8ee\L	8ggT\L	.
8CC/J	8CC/J	.	.	.	.	8r	16dd\LL	16ff\LL	.
.	.	.	.	.	.	.	16ee\JJ	16gg\JJ	.
=30	=30	=30	=30	=30	=30	=30	=30	=30	=30
8FF/	8FF/	2r	2r	2r	2r	8cc\	8ff\	8aat\L	2r
8r	8r	.	.	.	.	4dd\	8r	16gg\LL	.
.	.	.	.	.	.	.	.	16ff\JJ	.
8C/	8C/	.	.	.	.	.	8ee\	16gg\LL	.
.	.	.	.	.	.	.	.	16ff\	.
8r	8r	.	.	.	.	[8cc\	8r	16ee\	.
.	.	.	.	.	.	.	.	16gg\JJ	.
=31	=31	=31	=31	=31	=31	=31	=31	=31	=31
8D/L	8D/L	2r	2r	2r	2r	8cc\L]	8dd\	16ff\LL	2r
.	.	.	.	.	.	.	.	16ee\	.
8DD/	8DD/	.	.	.	.	8b\J	8r	16dd\	.
.	.	.	.	.	.	.	.	16ff\JJ	.
8EE/	8EE/	.	.	.	.	16cc\LL	8cc\	16ee\LL	.
.	.	.	.	.	.	16b\	.	16dd\	.
8FF/J	8FF/J	.	.	.	.	16a\	8r	16cc\	.
.	.	.	.	.	.	16cc\JJ	.	16ee\JJ	.
=32	=32	=32	=32	=32	=32	=32	=32	=32	=32
8GG\L	8GG\L	2r	2r	2r	2r	16b\LL	8g/	16dd\LL	2r
.	.	.	.	.	.	16a\	.	16cc\	.
8G\	8G\	.	.	.	.	16b\	8r	16dd\	.
.	.	.	.	.	.	16cc\JJ	.	16ee\JJ	.
8E\	8E\	.	.	.	.	16dd\LL	8g/	16ff\LL	.
.	.	.	.	.	.	16cc\	.	16ee\	.
8C\J	8C\J	.	.	.	.	16b\	8r	16dd\	.
.	.	.	.	.	.	16a\JJ	.	16cc\JJ	.
=33	=33	=33	=33	=33	=33	=33	=33	=33	=33
8GG\L	8GG\L	2r	2r	2r	2r	4b\	8g/	8dd\L	2r
8G\	8G\	.	.	.	.	.	8r	8g\J	.
8E\	8E\	.	.	.	.	8r	8r	[4cc\	.
8C\J	8C\J	.	.	.	.	8ee\	8g/	.	.
=34	=34	=34	=34	=34	=34	=34	=34	=34	=34
8F\L	8F\L	2r	2r	2r	2r	[4a/	8a/L	16cc/LL]	2r
.	.	.	.	.	.	.	.	16a/	.
8A\	8A\	.	.	.	.	.	8c/	16f/	.
.	.	.	.	.	.	.	.	16a/JJ	.
8F\	8F\	.	.	.	.	16a\LL]	8f/	[4dd\	.
.	.	.	.	.	.	16dd\	.	.	.
8D\J	8D\J	.	.	.	.	16ff\	8a/J	.	.
.	.	.	.	.	.	16dd\JJ	.	.	.
=35	=35	=35	=35	=35	=35	=35	=35	=35	=35
8G\L	8G\L	2r	2r	2r	2r	[4b\	8b/L	16dd\LL]	2r
.	.	.	.	.	.	.	.	16b\	.
8B\	8B\	.	.	.	.	.	8d/	16g\	.
.	.	.	.	.	.	.	.	16b\JJ	.
8G\	8G\	.	.	.	.	16b\LL]	8g/	[4ee\	.
.	.	.	.	.	.	16ee\	.	.	.
8E\J	8E\J	.	.	.	.	16gg\	8b/J	.	.
.	.	.	.	.	.	16ee\JJ	.	.	.
=36	=36	=36	=36	=36	=36	=36	=36	=36	=36
8A\L	8A\L	2r	2r	2r	2r	[4cc\	8cc/L	16ee\LL]	2r
.	.	.	.	.	.	.	.	16cc\	.
8c\	8c\	.	.	.	.	.	8e/	16a\	.
.	.	.	.	.	.	.	.	16cc\JJ	.
8A\	8A\	.	.	.	.	16cc\LL]	8a/	[4ff\	.
.	.	.	.	.	.	16ff\	.	.	.
8F\J	8F\J	.	.	.	.	16aa\	8cc/J	.	.
.	.	.	.	.	.	16ff\JJ	.	.	.
=37	=37	=37	=37	=37	=37	=37	=37	=37	=37
8B\L	8B\L	2r	2r	2r	2r	[4dd\	8dd/L	16ff\LL]	2r
.	.	.	.	.	.	.	.	16dd\	.
8d\	8d\	.	.	.	.	.	8g/	16b\	.
.	.	.	.	.	.	.	.	16dd\JJ	.
8B\	8B\	.	.	.	.	16dd\LL]	8b/	16gg\LL	.
.	.	.	.	.	.	16cc\	.	16aa\	.
8G\J	8G\J	.	.	.	.	16b\	8dd/J	16gg\	.
.	.	.	.	.	.	16a\JJ	.	16ff\JJ	.
=38	=38	=38	=38	=38	=38	=38	=38	=38	=38
8c\L	8c\L	2r	2r	2r	2r	16g/LL	8cc/L	16ee\LL	2r
.	.	.	.	.	.	16f/	.	16dd\	.
8E\	8E\	.	.	.	.	16e/	8g/	16cc\	.
.	.	.	.	.	.	16g/JJ	.	16ee\JJ	.
8F\	8F\	.	.	.	.	16f/LL	8a/	16dd\LL	.
.	.	.	.	.	.	16e/	.	16cc\	.
8G\J	8G\J	.	.	.	.	16d/	8g/J	16b\	.
.	.	.	.	.	.	16f/JJ	.	16dd\JJ	.
=39	=39	=39	=39	=39	=39	=39	=39	=39	=39
8A\L	8A\L	2r	2r	2r	2r	8e/	16cc\LL	16cc\LL	2r
.	.	.	.	.	.	.	16b\	16g\	.
16G\LL	16G\LL	.	.	.	.	8r	16cc\	16a\	.
16F\JJ	16F\JJ	.	.	.	.	.	16dd\JJ	16b\JJ	.
8E\L	8E\L	.	.	.	.	16r	8ee\L	16cc\LL	.
.	.	.	.	.	.	16b\LL	.	16dd\	.
8D\J	8D\J	.	.	.	.	16cc\	8gg\J	16ee\	.
.	.	.	.	.	.	16dd\JJ	.	16ff\JJ	.
=40	=40	=40	=40	=40	=40	=40	=40	=40	=40
16C\LL	16C\LL	2r	2r	2r	2r	16ee\LL	8.ee\L	8gg\L	2r
16D\	16D\	.	.	.	.	16ff\	.	.	.
16E\	16E\	.	.	.	.	16gg\	.	8cc\	.
16F\JJ	16F\JJ	.	.	.	.	16aa\JJ	16dd\Jk	.	.
8G\L	8G\L	.	.	.	.	16dd\LL	8.ddT\L	8g\	.
.	.	.	.	.	.	16ee\	.	.	.
8GG\J	8GG\J	.	.	.	.	16ff\	.	8b\J	.
.	.	.	.	.	.	16gg\JJ	16cc\Jk	.	.
=41	=41	=41	=41	=41	=41	=41	=41	=41	=41
8C/	8C/	2r	2r	2r	2r	8ee\L	8cc\L	8cc\	8cc\L
8r	8r	.	.	.	.	16cc\LL	16ee\LL	8r	8gg\J
.	.	.	.	.	.	16dd\JJ	16dd\JJ	.	.
4r	4r	.	.	.	.	8ee\L	8cc/L	8ccc\	8ggT\L
.	.	.	.	.	.	16dd\LL	8c/J	8r	16ff\LL
.	.	.	.	.	.	16ee\JJ	.	.	16gg\JJ
=42	=42	=42	=42	=42	=42	=42	=42	=42	=42
2r	2r	2r	2r	2r	2r	8ff\L	8f\L	8ccc\	8aa\L
.	.	.	.	.	.	16ee\LL	8ff\J	8r	16gg\LL
.	.	.	.	.	.	16dd\JJ	.	.	16ff\JJ
.	.	.	.	.	.	8ee\L	8cc\L	8ccc\	8gg\L
.	.	.	.	.	.	16cc\LL	16ee\LL	8r	8ccc\J
.	.	.	.	.	.	16dd\JJ	16dd\JJ	.	.
=43	=43	=43	=43	=43	=43	=43	=43	=43	=43
2r	2r	2r	2r	2r	2r	8ee\L	8cc\L	8ccc\	8ggT\L
.	.	.	.	.	.	16cc\LL	16ee\LL	8r	16aa\LL
.	.	.	.	.	.	16dd\JJ	16dd\JJ	.	16ff\JJ
.	.	.	.	.	.	8ee\L	8cc/L	8ccc\	8ggT\L
.	.	.	.	.	.	16dd\LL	8c/J	8r	16ff\LL
.	.	.	.	.	.	16ee\JJ	.	.	16gg\JJ
=44	=44	=44	=44	=44	=44	=44	=44	=44	=44
2r	2r	2r	2r	2r	2r	8ff\	8f/	8ccc\	8aa\L
.	.	.	.	.	.	8r	8r	4ddd\	16gg\LL
.	.	.	.	.	.	.	.	.	16ff\JJ
.	.	.	.	.	.	8ee\	8cc\	.	16gg\LL
.	.	.	.	.	.	.	.	.	16ccc\
.	.	.	.	.	.	8r	8r	[8ccc\	16ddd\
.	.	.	.	.	.	.	.	.	16eee\JJ
=45	=45	=45	=45	=45	=45	=45	=45	=45	=45
2r	2r	2r	2r	2r	2r	8dd\	8dd/L	8ccc\L]	16fff\LL
.	.	.	.	.	.	.	.	.	16eee\
.	.	.	.	.	.	8r	8d/	8bb\J	16ddd\
.	.	.	.	.	.	.	.	.	16fff\JJ
.	.	.	.	.	.	8cc\	8e/	16ccc\LL	16eee\LL
.	.	.	.	.	.	.	.	16bb\	16ddd\
.	.	.	.	.	.	8r	8f/J	16aa\	16ccc\
.	.	.	.	.	.	.	.	16ccc\JJ	16eee\JJ
=46	=46	=46	=46	=46	=46	=46	=46	=46	=46
2r	2r	2r	2r	2r	2r	8gg\	8g\L	16bb\LL	16ddd\LL
.	.	.	.	.	.	.	.	16aa\	16ccc\
.	.	.	.	.	.	8r	8gg\	16bb\	16ddd\
.	.	.	.	.	.	.	.	16ccc\JJ	16eee\JJ
.	.	.	.	.	.	8gg\	8ee\	16ddd\LL	16fff\LL
.	.	.	.	.	.	.	.	16ccc\	16eee\
.	.	.	.	.	.	8r	8cc\J	16bb\	16ddd\
.	.	.	.	.	.	.	.	16aa\JJ	16ccc\JJ
=47	=47	=47	=47	=47	=47	=47	=47	=47	=47
8r	8r	4r	4r	4r	4r	8gg\	8g/	16bb\LL	8ddd\L
.	.	.	.	.	.	.	.	16aa\	.
16G\LL	16G\LL	.	.	.	.	8r	8dd\L	16bb\	8gg\J
16A\JJ	16A\JJ	.	.	.	.	.	.	16ccc\JJ	.
16B\LL	16B\LL	8BB\	8b\	8dd\	8gg\	8r	8gg\	16ddd\LL	8r
16c\	16c\	.	.	.	.	.	.	16eee\	.
16A\	16A\	8r	8r	8r	8r	8ee\	8gg\J	16ccc\	8gg\
16B\JJ	16B\JJ	.	.	.	.	.	.	16ddd\JJ	.
=48	=48	=48	=48	=48	=48	=48	=48	=48	=48
16c\LL	16c\LL	8C\	8a\	8ee\	8gg\	8aa\L	8gg\L	16eee\LL	8ccc\L
16d\	16d\	.	.	.	.	.	.	16fff\	.
16B\	16B\	8r	8r	8r	8r	8aa\J	16aa\LL	16ddd\	8ccc\J
16c\JJ	16c\JJ	.	.	.	.	.	16gg\JJ	16eee\JJ	.
16d\LL	16d\LL	8D\	8a\	8dd\	8ff\	8aa\L	8ff\L	16fff\LL	8ccc\L
16B\	16B\	.	.	.	.	.	.	16ddd\	.
16c\	16c\	8r	8r	8r	8r	16gg\LL	8ff\J	16eee\	16bbn\LL
16d\JJ	16d\JJ	.	.	.	.	16ff\JJ	.	16fff\JJ	16aa\JJ
=49	=49	=49	=49	=49	=49	=49	=49	=49	=49
16G\LL	16G\LL	8GG\	8b\	8dd\	8ff\	8gg\L	8ff\L	16bb\LL	8bbn\L
16B\	16B\	.	.	.	.	.	.	16ddd\	.
16E\	16E\	8r	8r	8r	8r	8gg\J	16gg\LL	16gg\	8bbn\J
16F\JJ	16F\JJ	.	.	.	.	.	16ff\JJ	16aa\JJ	.
16G\LL	16G\LL	8GG\	8g\	8b\	8ee\	8gg\L	8ee\L	16bb\LL	8bbn\L
16A\	16A\	.	.	.	.	.	.	16ccc\	.
16F\	16F\	8r	8r	8r	8r	16aa\LL	8ee\J	16aa\	16ccc\LL
16G\JJ	16G\JJ	.	.	.	.	16gg\JJ	.	16bb\JJ	16bbn\JJ
=50	=50	=50	=50	=50	=50	=50	=50	=50	=50
16A\LL	16A\LL	8AA\	8f\	8cc\	8ee\	8ff\L	8ee\L	16ccc\LL	8aa\L
16B\	16B\	.	.	.	.	.	.	16ddd\	.
16G\	16G\	8r	8r	8r	8r	8ff\J	16ff\LL	16bb\	8aa\J
16A\JJ	16A\JJ	.	.	.	.	.	16ee\JJ	16ccc\JJ	.
16B\LL	16B\LL	8BB\	8f\	8g/	8dd\	8ff\L	8dd\L	16ddd\LL	8aa\L
16G\	16G\	.	.	.	.	.	.	16bb\	.
16A\	16A\	8r	8r	8r	8r	16ee\LL	8dd\J	16ccc\	16gg\LL
16B\JJ	16B\JJ	.	.	.	.	16dd\JJ	.	16ddd\JJ	16ff\JJ
=51	=51	=51	=51	=51	=51	=51	=51	=51	=51
16E\LL	16E\LL	8EE\	8e\	8g/	8dd\	8ee\L	8dd\L	16gg\LL	8gg\L
16G\	16G\	.	.	.	.	.	.	16bb\	.
16C\	16C\	8r	8r	8r	8r	8ee\J	16ee\LL	16ee\	8gg\J
16D\JJ	16D\JJ	.	.	.	.	.	16dd\JJ	16ff\JJ	.
16E\LL	16E\LL	8EE\	8e\	8g/	8cc\	8ee\L	8cc\L	16gg\LL	8gg\L
16F\	16F\	.	.	.	.	.	.	16aa\	.
16D\	16D\	8r	8r	8r	8r	16ff\LL	8cc\J	16ff\	16aa\LL
16E\JJ	16E\JJ	.	.	.	.	16ee\JJ	.	16gg\JJ	16gg\JJ
=52	=52	=52	=52	=52	=52	=52	=52	=52	=52
16F\LL	16F\LL	8FF\	8d\	8a/	8cc\	8dd\L	8cc\L	16aa\LL	8ff\L
16G\	16G\	.	.	.	.	.	.	16bb\	.
16E\	16E\	8r	8r	8r	8r	8dd\J	16b\LL	16ccc\	8aa\
16F\JJ	16F\JJ	.	.	.	.	.	16a\JJ	16ddd\JJ	.
16G\LL	16G\LL	8GG\	8d\	8g/	8b\	8dd\L	8ff\L	16bb\LL	8bbn\
16E\	16E\	.	.	.	.	.	.	16ddd\	.
16F\	16F\	8r	8r	8r	8r	16cc\LL	16ee\LL	16gg\	8ddd\J
16G\JJ	16G\JJ	.	.	.	.	16b\JJ	16dd\JJ	16ff\JJ	.
=53	=53	=53	=53	=53	=53	=53	=53	=53	=53
8C\L	8C\L	8CC\L	[2c\	8g/L	[2ee\	4cc\	16gg\LL	8ee\L	16eee\LL
.	.	.	.	.	.	.	16aa\	.	16fff\
8D\	8D\	8DD\	.	16cc/LL	.	.	16gg\	8gg\J	16eee\
.	.	.	.	16b/JJ	.	.	16ff\JJ	.	16ddd\JJ
8E\	8E\	8EE\	.	8cc/L	.	8r	8ee\L	[4ccc\	16ccc\LL
.	.	.	.	.	.	.	.	.	16bbn\
8C\J	8C\J	8CC\J	.	8g/J	.	[8ee\	8gg\J	.	16aa\
.	.	.	.	.	.	.	.	.	16gg\JJ
=54	=54	=54	=54	=54	=54	=54	=54	=54	=54
8FF\L	8FF\L	8FFF\L	8c\]	4a/	8ee\L]	8ee\L]	8gg\L	16ccc\LL]	16aa\LL
.	.	.	.	.	.	.	.	16ddd\	16bbn\
16F\LL	16F\LL	16FF\LL	4f\	.	8cc\	8a\	8cc\	16bb\	16gg\
16E\JJ	16E\JJ	16EE\JJ	.	.	.	.	.	16ccc\JJ	16aa\JJ
8D\L	8D\L	8DD\L	.	8dd\L	8ff\	8dd\	8ff\	16ddd\LL	16bbn\LL
.	.	.	.	.	.	.	.	16eee\	16ccc\
16G\LL	16G\LL	16GG\LL	[8g\	8b\J	8dd\J	8b\J	8dd\J	16ccc\	16aa\
16F\JJ	16F\JJ	16FF\JJ	.	.	.	.	.	16ddd\JJ	16bbn\JJ
=55	=55	=55	=55	=55	=55	=55	=55	=55	=55
8E/L	8E/L	8EE/L	8g\]	4ee\	[2gg\	8gg\L	8g\L	16eee\LL	16ccc\LL
.	.	.	.	.	.	.	.	16fff\	16ddd\
16D/LL	16D/LL	16DD/LL	4f\	.	.	16ff\LL	8gg\	16ggg\	16bbn\
16C/JJ	16C/JJ	16CC/JJ	.	.	.	16ee\JJ	.	16eee\JJ	16ccc\JJ
8BB/L	8BB/L	8BBB/L	.	[4dd\	.	8dd\	8gg\	8fff\L	16ddd\LL
.	.	.	.	.	.	.	.	.	16ccc\
8GG/J	8GG/J	8GGG/J	16e\LL	.	.	8r	8dd\J	[8fff\J	16bbn\
.	.	.	16d\JJ	.	.	.	.	.	16aa\JJ
=56	=56	=56	=56	=56	=56	=56	=56	=56	=56
8C\L	8C\L	8CC\L	8c\L	8dd\L]	16gg\LL]	2r	8g\L	8fff\L]	8gg\L
.	.	.	.	.	16ff\	.	.	.	.
16E\LL	16E\LL	16EE\LL	8g\	8cc\	16gg\	.	8gg\	16eee\LL	16ccc\LL
16F\JJ	16F\JJ	16FF\JJ	.	.	16aa\JJ	.	.	16ddd\JJ	16ddd\JJ
8G\L	8G\L	8GG\L	8b\	8g\	16dd\LL	.	8gg\	8.dddT\L	8.bbnt\L
.	.	.	.	.	16gg\	.	.	.	.
8GG\J	8GG\J	8GGG\J	8g\J	8b\J	16ff\	.	8dd\J	.	.
.	.	.	.	.	16gg\JJ	.	.	16ccc\Jk	16ccc\Jk
=57	=57	=57	=57	=57	=57	=57	=57	=57	=57
8C/	8C/	4CC/	4g\	8g/L	8ee\L	8c/L	8ee\	8ccc\	8ccc\
8r	8r	.	.	8e/J	8cc\J	8g/J	8r	16cc\LL	8r
.	.	.	.	.	.	.	.	16dd\JJ	.
8C/	8C/	4r	4r	4r	4r	8gT/L	4r	8ee\L	4r
8r	8r	.	.	.	.	16f/LL	.	16dd\LL	.
.	.	.	.	.	.	16g/JJ	.	16ee\JJ	.
=58	=58	=58	=58	=58	=58	=58	=58	=58	=58
8C/	8C/	2r	2r	2r	2r	8at/L	2r	8ff\L	2r
8r	8r	.	.	.	.	16g/LL	.	16ee\LL	.
.	.	.	.	.	.	16f/JJ	.	16dd\JJ	.
8C/	8C/	.	.	.	.	8g/L	.	8ee\L	.
8r	8r	.	.	.	.	8cc/J	.	16cc\LL	.
.	.	.	.	.	.	.	.	16dd\JJ	.
=59	=59	=59	=59	=59	=59	=59	=59	=59	=59
8C/	8C/	2r	2r	2r	2r	8gT/L	2r	8ee\L	2r
8r	8r	.	.	.	.	16e/LL	.	16cc\LL	.
.	.	.	.	.	.	16f/JJ	.	16dd\JJ	.
8C\L	8C\L	.	.	.	.	8gT/L	.	8ee\L	.
16D\LL	16D\LL	.	.	.	.	16f/LL	.	[8eee\J	.
16E\JJ	16E\JJ	.	.	.	.	16g/JJ	.	.	.
=60	=60	=60	=60	=60	=60	=60	=60	=60	=60
8F\L	8F\L	2r	2r	2r	2r	8a/L	2r	8eee\]	2r
16E\LL	16E\LL	.	.	.	.	16g/LL	.	4ddd\	.
16D\JJ	16D\JJ	.	.	.	.	16f/JJ	.	.	.
8E\L	8E\L	.	.	.	.	16g/LL	.	.	.
.	.	.	.	.	.	16f/	.	.	.
8A\J	8A\J	.	.	.	.	16e/	.	[8ccc\	.
.	.	.	.	.	.	16g/JJ	.	.	.
=61	=61	=61	=61	=61	=61	=61	=61	=61	=61
8D/L	8D/L	2r	2r	2r	2r	16f/LL	2r	8ccc\L]	2r
.	.	.	.	.	.	16e/	.	.	.
8G/	8G/	.	.	.	.	16d/	.	8bb\J	.
.	.	.	.	.	.	16f/JJ	.	.	.
8C/	8C/	.	.	.	.	16e/LL	.	16ccc\LL	.
.	.	.	.	.	.	16d/	.	16bb\	.
8CC/J	8CC/J	.	.	.	.	16c/	.	16aa\	.
.	.	.	.	.	.	16e/JJ	.	16ccc\JJ	.
=62	=62	=62	=62	=62	=62	=62	=62	=62	=62
8GG/L	8GG/L	2r	2r	2r	2r	16d/LL	2r	16bb\LL	2r
.	.	.	.	.	.	16c/	.	16aa\	.
8C/	8C/	.	.	.	.	16d/	.	16bb\	.
.	.	.	.	.	.	16e/JJ	.	16ccc\JJ	.
8BB/	8BB/	.	.	.	.	16f/LL	.	16ddd\LL	.
.	.	.	.	.	.	16e/	.	16ccc\	.
8C/J	8C/J	.	.	.	.	16d/	.	16bb\	.
.	.	.	.	.	.	16c/JJ	.	16aa\JJ	.
=63	=63	=63	=63	=63	=63	=63	=63	=63	=63
4GG/	4GG/	2r	2r	2r	2r	16d/LL	2r	16bb\LL	2r
.	.	.	.	.	.	16c/	.	16aa\	.
.	.	.	.	.	.	16B/	.	16gg\	.
.	.	.	.	.	.	16c/JJ	.	16aa\JJ	.
8r	8r	.	.	.	.	16d/LL	.	16bb\LL	.
.	.	.	.	.	.	16c/	.	16aa\	.
[8G\	[8G\	.	.	.	.	16d/	.	16bb\	.
.	.	.	.	.	.	16f/JJ	.	16ddd\JJ	.
=64	=64	=64	=64	=64	=64	=64	=64	=64	=64
8G\L]	8G\L]	2r	2r	2r	2r	16e/LL	2r	16ccc#\LL	2r
.	.	.	.	.	.	16d/	.	16bb\	.
8F\	8F\	.	.	.	.	16e/	.	16ccc#\	.
.	.	.	.	.	.	16f/JJ	.	16ddd\JJ	.
8C#\	8C#\	.	.	.	.	16g/LL	.	16eee\LL	.
.	.	.	.	.	.	16f/	.	16ddd\	.
8D\J	8D\J	.	.	.	.	16e/	.	16ccc#\	.
.	.	.	.	.	.	16d/JJ	.	16bb\JJ	.
=65	=65	=65	=65	=65	=65	=65	=65	=65	=65
4AA/	4AA/	2r	2r	2r	2r	16e/LL	2r	16ccc#\LL	2r
.	.	.	.	.	.	16d/	.	16bb\	.
.	.	.	.	.	.	16c#/	.	16aa\	.
.	.	.	.	.	.	16d/JJ	.	16bb\JJ	.
8r	8r	.	.	.	.	16e/LL	.	16ccc#\LL	.
.	.	.	.	.	.	16d/	.	16bb\	.
8A\	8A\	.	.	.	.	16e/	.	16ccc#\	.
.	.	.	.	.	.	16g/JJ	.	16eee\JJ	.
=66	=66	=66	=66	=66	=66	=66	=66	=66	=66
8D\L	8D\L	2r	2r	2r	2r	8f/L	8dd\L	8ddd\	2r
16F\LL	16F\LL	.	.	.	.	16d/LL	8aa\J	8r	.
16E\JJ	16E\JJ	.	.	.	.	16e/JJ	.	.	.
8D/L	8D/L	.	.	.	.	8f/L	8aat\L	8ddd\	.
8DD/J	8DD/J	.	.	.	.	16e/LL	16gg\LL	8r	.
.	.	.	.	.	.	16f/JJ	16aa\JJ	.	.
=67	=67	=67	=67	=67	=67	=67	=67	=67	=67
8GG\L	8GG\L	2r	2r	2r	2r	8g/L	8bb-T\L	8ddd\	2r
8G\J	8G\J	.	.	.	.	16f/LL	16aa\LL	8r	.
.	.	.	.	.	.	16e/JJ	16gg\JJ	.	.
8D\L	8D\L	.	.	.	.	8f/L	8aa\L	8ddd\	.
16F\LL	16F\LL	.	.	.	.	16d/LL	8ddd\J	8r	.
16E\JJ	16E\JJ	.	.	.	.	16e/JJ	.	.	.
=68	=68	=68	=68	=68	=68	=68	=68	=68	=68
8D\L	8D\L	2r	2r	2r	2r	8f/L	8aat\L	8ddd\	2r
16F\LL	16F\LL	.	.	.	.	16d/LL	16ff\LL	8r	.
16E\JJ	16E\JJ	.	.	.	.	16e/JJ	16gg\JJ	.	.
8D/L	8D/L	.	.	.	.	8f/L	8aat\L	8ddd\	.
8DD/J	8DD/J	.	.	.	.	16e/LL	16gg\LL	8r	.
.	.	.	.	.	.	16f/JJ	16aa\JJ	.	.
=69	=69	=69	=69	=69	=69	=69	=69	=69	=69
8GG/	8GG/	2r	2r	2r	2r	8g/	8bb-T\L	8ddd\	2r
8r	8r	.	.	.	.	8r	16aa\LL	4eee\	.
.	.	.	.	.	.	.	16gg\JJ	.	.
8D/	8D/	.	.	.	.	8f/	16aa\LL	.	.
.	.	.	.	.	.	.	16gg\	.	.
8r	8r	.	.	.	.	8r	16ff\	[8ddd\	.
.	.	.	.	.	.	.	16aa\JJ	.	.
=70	=70	=70	=70	=70	=70	=70	=70	=70	=70
8E/L	8E/L	2r	2r	2r	2r	8e/	16gg\LL	8ddd\L]	2r
.	.	.	.	.	.	.	16ff\	.	.
8EE/	8EE/	.	.	.	.	8r	16ee\	8ccc#\J	.
.	.	.	.	.	.	.	16gg\JJ	.	.
8FF/	8FF/	.	.	.	.	8d/	16ff\LL	16ddd\LL	.
.	.	.	.	.	.	.	16ee\	16ccc#\	.
8GG/J	8GG/J	.	.	.	.	8r	16dd\	16bb\	.
.	.	.	.	.	.	.	16ff\JJ	16ddd\JJ	.
=71	=71	=71	=71	=71	=71	=71	=71	=71	=71
8AA/L	8AA/L	2r	2r	2r	2r	16a\LL	16ee\LL	16ccc#\LL	2r
.	.	.	.	.	.	16aa\	16dd\	16bb\	.
8FF/	8FF/	.	.	.	.	16b\	16ee\	16ccc#\	.
.	.	.	.	.	.	16aa\JJ	16ff\JJ	16ddd\JJ	.
8EE/	8EE/	.	.	.	.	16cc#\LL	16gg\LL	16eee\LL	.
.	.	.	.	.	.	16aa\	16ff\	16ddd\	.
8DD/J	8DD/J	.	.	.	.	16dd\	16ee\	16ccc#\	.
.	.	.	.	.	.	16aa\JJ	16dd\JJ	16bb\JJ	.
=72	=72	=72	=72	=72	=72	=72	=72	=72	=72
8AA/L	8AA/L	8AAA/L	8e\	8a/	8cc#\	16a\LL	8ee\L	8ccc#\L	8a/
.	.	.	.	.	.	16aa\	.	.	.
8E/J	8E/J	8EE/J	8r	8r	4aa\	16b\	8gg\	16ee\LL	8r
.	.	.	.	.	.	16aa\JJ	.	16ff\JJ	.
8E\L	8E\L	8EE\L	8e\	8g/	.	16cc#\LL	8ee\	8gg\L	8a/
.	.	.	.	.	.	16aa\	.	.	.
16D\LL	16D\LL	16DD\LL	8r	8r	8cc#\	16a\	8cc#\J	16ff\LL	8r
16E\JJ	16E\JJ	16EE\JJ	.	.	.	16aa\JJ	.	16gg\JJ	.
=73	=73	=73	=73	=73	=73	=73	=73	=73	=73
8F\L	8F\L	8FF\L	8d\	8f/	8dd\	16dd\LL	8a/	8aa\L	8a/
.	.	.	.	.	.	16aa\	.	.	.
16E\LL	16E\LL	16EE\LL	8r	8r	4aa\	16b\	8r	16gg\LL	8r
16D\JJ	16D\JJ	16DD\JJ	.	.	.	16aa\JJ	.	16ff\JJ	.
8E\L	8E\L	8EE\L	8A/	8g/	.	16cc#\LL	8r	8gg\L	8a/
.	.	.	.	.	.	16aa\	.	.	.
8A\J	8A\J	8AA\J	8r	8r	16cc#\LL	16a\	16cc#\LL	16ee\LL	8r
.	.	.	.	.	16b\JJ	16aa\JJ	16dd\JJ	16ff\JJ	.
=74	=74	=74	=74	=74	=74	=74	=74	=74	=74
8E\L	8E\L	8EE\L	8g\	8a/	8cc#\	16cc#\LL	8ee\L	8gg\L	8a/
.	.	.	.	.	.	16aa\	.	.	.
16C#\LL	16C#\LL	16CC#\LL	8r	8r	4aa\	16ee\	8gg\	16ee\LL	8r
16D\JJ	16D\JJ	16DD\JJ	.	.	.	16aa\JJ	.	16ff\JJ	.
8E\L	8E\L	8EE\L	8e\	8g/	.	16cc#\LL	8ee\	8gg\L	8a/
.	.	.	.	.	.	16aa\	.	.	.
16D\LL	16D\LL	16DD\LL	8r	8r	8cc#\	16a\	8cc#\J	16ff\LL	8r
16E\JJ	16E\JJ	16EE\JJ	.	.	.	16aa\JJ	.	16gg\JJ	.
=75	=75	=75	=75	=75	=75	=75	=75	=75	=75
8F\L	8F\L	8FF\L	8d\	8f/	8dd\	16dd\LL	8a/	8aa\	8a/
.	.	.	.	.	.	16aa\	.	.	.
16E\LL	16E\LL	16EE\LL	8r	8r	4aa\	16b\	8r	8r	8r
16D\JJ	16D\JJ	16DD\JJ	.	.	.	16aa\JJ	.	.	.
16E\LL	16E\LL	16EE\LL	8A/	8g/	.	16cc#\LL	8cc#\	8gg\	8a/
16D\	16D\	16DD\	.	.	.	16aa\	.	.	.
16C#\	16C#\	16CC#\	8r	8r	8ee\	16a\	8r	8r	8r
16E\JJ	16E\JJ	16EE\JJ	.	.	.	16aa\JJ	.	.	.
=76	=76	=76	=76	=76	=76	=76	=76	=76	=76
16D/LL	16D/LL	16DD/LL	8d\	8a/	8ff\	16ff\LL	8dd\	8ff\	8a/
16C#/	16C#/	16CC#/	.	.	.	16aa\	.	.	.
16BB/	16BB/	16BBB/	8r	8r	4aa\	16dd\	8r	8r	8r
16D/JJ	16D/JJ	16DD/JJ	.	.	.	16aa\JJ	.	.	.
16C#/LL	16C#/LL	16CC#/LL	8e\	8a/	.	16ee\LL	8ee\	8gg\	8a/
16D/	16D/	16DD/	.	.	.	16aa\	.	.	.
16E/	16E/	16EE/	8r	8r	8cc#\	16cc#\	8r	8r	8r
16C#/JJ	16C#/JJ	16CC#/JJ	.	.	.	16aa\JJ	.	.	.
=77	=77	=77	=77	=77	=77	=77	=77	=77	=77
16F\LL	16F\LL	16FF\LL	8d\	8a/	8dd\	16dd\LL	8a/	8aa\	8a/
16E\	16E\	16EE\	.	.	.	16aa\	.	.	.
16D\	16D\	16DD\	8r	8r	4aa\	16b\	8r	8r	8r
16F\JJ	16F\JJ	16FF\JJ	.	.	.	16aa\JJ	.	.	.
16E\LL	16E\LL	16EE\LL	8c#\	8g/	.	16cc#\LL	8cc#\	8gg\	8a/
16D\	16D\	16DD\	.	.	.	16aa\	.	.	.
16C#\	16C#\	16CC#\	8r	8r	8ee\	16a\	8r	8r	8r
16E\JJ	16E\JJ	16EE\JJ	.	.	.	16aa\JJ	.	.	.
=78	=78	=78	=78	=78	=78	=78	=78	=78	=78
16D/LL	16D/LL	16DD/LL	8d\	8a/	8ff\	16ff\LL	8dd\	8ff\	8a/
16C#/	16C#/	16CC#/	.	.	.	16aa\	.	.	.
16BB/	16BB/	16BBB/	8r	8r	4aa\	16dd\	8r	8r	8r
16D/JJ	16D/JJ	16DD/JJ	.	.	.	16aa\JJ	.	.	.
16C#/LL	16C#/LL	16CC#/LL	8e\	8a/	.	16ee\LL	8ee\	8ee\	8a/
16D/	16D/	16DD/	.	.	.	16aa\	.	.	.
16E/	16E/	16EE/	8r	8r	8cc#\	16cc#\	8r	8r	8r
16C#/JJ	16C#/JJ	16CC#/JJ	.	.	.	16aa\JJ	.	.	.
=79	=79	=79	=79	=79	=79	=79	=79	=79	=79
8D\	8D\	8DD\	8d\	8a/	8ff\	16ff/LL	16a\LL	8dd\	8a/
.	.	.	.	.	.	16dd/	16cc#\	.	.
8A\L	8A\L	8AA\L	8r	8r	8r	16f/	16dd\	8r	8r
.	.	.	.	.	.	16g/JJ	16ee\JJ	.	.
8d\	8d\	8D\	8a\	8ff\	8ff\	16a/LL	16ff\LL	8r	8r
.	.	.	.	.	.	16b-/	16gg\	.	.
8d\J	8d\J	8D\J	8r	8r	8r	16g/	16ee\	8ddd\	8ff\
.	.	.	.	.	.	16a/JJ	16ff\JJ	.	.
=80	=80	=80	=80	=80	=80	=80	=80	=80	=80
8d\L	8d\L	8D\L	8b-\	8ee\	8gg\	16b-/LL	16gg\LL	8ggg\L	8bb-\L
.	.	.	.	.	.	16cc/	16aa\	.	.
16e\LL	16e\LL	16E\LL	8r	8r	8r	16a/	16ff\	8ggg\J	8bb-\J
16d\JJ	16d\JJ	16D\JJ	.	.	.	16b-/JJ	16gg\JJ	.	.
8c\L	8c\L	8C\L	8cc\	8g/	8ee\	16cc/LL	16aa\LL	8ggg\L	8bb-\L
.	.	.	.	.	.	16a/	16ff\	.	.
8c\J	8c\J	8C\J	8r	8r	8r	16b-/	16gg\	16fff\LL	16aa\LL
.	.	.	.	.	.	16cc/JJ	16aa\JJ	16eee-\JJ	16gg\JJ
=81	=81	=81	=81	=81	=81	=81	=81	=81	=81
8c\L	8c\L	8C\L	8dd\	8a/	8ff\	16f/LL	16dd\LL	8fff\L	8aa\L
.	.	.	.	.	.	16a/	16ff\	.	.
16d\LL	16d\LL	16D\LL	8r	8r	8r	16d/	16b-\	8fff\J	8aa\J
16c\JJ	16c\JJ	16C\JJ	.	.	.	16e-/JJ	16cc\JJ	.	.
8B-\L	8B-\L	8BB-\L	8f\	8b-\	8dd\	16f/LL	16dd\LL	8fff\L	8aa\L
.	.	.	.	.	.	16g/	16ee-\	.	.
8B-\J	8B-\J	8BB-\J	8r	8r	8r	16e-/	16cc\	16ggg\LL	16bb-\LL
.	.	.	.	.	.	16f/JJ	16dd\JJ	16fff\JJ	16aa\JJ
=82	=82	=82	=82	=82	=82	=82	=82	=82	=82
8B-\L	8B-\L	8BB-\L	8g\	8cc\	8ee-\	16g/LL	16ee-\LL	8eee-\L	8gg\L
.	.	.	.	.	.	16a/	16ff\	.	.
16c\LL	16c\LL	16C\LL	8r	8r	8r	16f/	16dd\	8eee-\J	8gg\J
16B-\JJ	16B-\JJ	16BB-\JJ	.	.	.	16g/JJ	16ee-\JJ	.	.
8A\L	8A\L	8AA\L	8a\	8e-/	8cc\	16a/LL	16ff\LL	8eee-\L	8gg\L
.	.	.	.	.	.	16f/	16dd\	.	.
8A\J	8A\J	8AA\J	8r	8r	8r	16g/	16ee-\	16ddd\LL	16ff\LL
.	.	.	.	.	.	16a/JJ	16ff\JJ	16ccc\JJ	16ee-\JJ
=83	=83	=83	=83	=83	=83	=83	=83	=83	=83
8A\L	8A\L	8AA\L	8b-\	8f/	8dd\	16d/LL	16b-\LL	8ddd\L	8ff\L
.	.	.	.	.	.	16f/	16dd\	.	.
16B-\LL	16B-\LL	16BB-\LL	8r	8r	8r	16B-/	16g\	8ddd\J	8ff\J
16A\JJ	16A\JJ	16AA\JJ	.	.	.	16c/JJ	16a\JJ	.	.
8G\L	8G\L	8GG\L	8d\	8g/	8b-\	16d/LL	16b-\LL	8ddd\L	8ff\L
.	.	.	.	.	.	16e-/	16cc\	.	.
8G\J	8G\J	8GG\J	8r	8r	8r	16c/	16a\	16eee-\LL	16gg\LL
.	.	.	.	.	.	16d/JJ	16b-\JJ	16ddd\JJ	16ff\JJ
=84	=84	=84	=84	=84	=84	=84	=84	=84	=84
8G\L	8G\L	8GG\L	8e-\	8a/	8cc\	16e-/LL	16cc\LL	8ccc\L	8ee-\L
.	.	.	.	.	.	16f/	16dd\	.	.
16A\LL	16A\LL	16AA\LL	8r	8r	8r	16d/	16b-\	8ccc\J	8eee-\J
16G\JJ	16G\JJ	16GG\JJ	.	.	.	16e-/JJ	16cc\JJ	.	.
8F#\L	8F#\L	8FF#\L	8d\	8a/	8a/	8A/L	16dd\LL	8ccc\L	4aat\
.	.	.	.	.	.	.	16b-\	.	.
8F#\J	8F#\J	8FF#\J	8r	8r	8r	8d/J	16cc\	16bb-\LL	.
.	.	.	.	.	.	.	16dd\JJ	16aa\JJ	.
=85	=85	=85	=85	=85	=85	=85	=85	=85	=85
8G\	8G\	8GG\	8d\	8g/	8b-\	16d/LL	16g\LL	8bb-\	8gg\
.	.	.	.	.	.	16c/	16dd\	.	.
8F\L	8F\L	8r	8r	8r	8r	16B-/	16ee\	8r	8r
.	.	.	.	.	.	16A/JJ	16ff\JJ	.	.
8E\	8E\	4r	4r	4r	4r	16G/LL	[4gg\	4r	4r
.	.	.	.	.	.	16b/	.	.	.
8D\J	8D\J	.	.	.	.	16cc#/	.	.	.
.	.	.	.	.	.	16dd/JJ	.	.	.
=86	=86	=86	=86	=86	=86	=86	=86	=86	=86
8C#\L	8C#\L	2r	2r	2r	2r	16ee\LL	16gg\LL]	2r	2r
.	.	.	.	.	.	16dd\	16ff\	.	.
8A\	8A\	.	.	.	.	16cc#\	16ee\	.	.
.	.	.	.	.	.	16ee\JJ	16gg\JJ	.	.
8d\	8d\	.	.	.	.	16dd\LL	16ff\LL	.	.
.	.	.	.	.	.	16cc#\	16ee\	.	.
8D\J	8D\J	.	.	.	.	16b\	16dd\	.	.
.	.	.	.	.	.	16dd\JJ	16ff\JJ	.	.
=87	=87	=87	=87	=87	=87	=87	=87	=87	=87
4A\	4A\	2r	2r	2r	2r	16cc#\LL	8ee\L	2r	2r
.	.	.	.	.	.	16b\	.	.	.
.	.	.	.	.	.	16a\	8a\J	.	.
.	.	.	.	.	.	16b\JJ	.	.	.
8r	8r	.	.	.	.	16cc#\LL	[4aa\	.	.
.	.	.	.	.	.	16dd\	.	.	.
8A\	8A\	.	.	.	.	16b\	.	.	.
.	.	.	.	.	.	16cc#\JJ	.	.	.
=88	=88	=88	=88	=88	=88	=88	=88	=88	=88
8B\L	8B\L	2r	2r	2r	2r	16dd\LL	8aa\L]	2r	2r
.	.	.	.	.	.	16ee\	.	.	.
16A\LL	16A\LL	.	.	.	.	16cc#\	16gg\LL	.	.
16B\JJ	16B\JJ	.	.	.	.	16dd\JJ	16ff\JJ	.	.
8c#\L	8c#\L	.	.	.	.	16ee\LL	8gg\L	.	.
.	.	.	.	.	.	16cc#\	.	.	.
16B\LL	16B\LL	.	.	.	.	16dd\	8gg\J	.	.
16c#\JJ	16c#\JJ	.	.	.	.	16ee\JJ	.	.	.
=89	=89	=89	=89	=89	=89	=89	=89	=89	=89
4d\	4d\	2r	2r	2r	2r	8a/	16ff\LL	8r	2r
.	.	.	.	.	.	.	16ee\	.	.
.	.	.	.	.	.	8r	16dd\	8aa\	.
.	.	.	.	.	.	.	16ee\JJ	.	.
8r	8r	.	.	.	.	4r	16ff#\LL	[4ddd\	.
.	.	.	.	.	.	.	16gg\	.	.
8D\	8D\	.	.	.	.	.	16ee\	.	.
.	.	.	.	.	.	.	16ff#\JJ	.	.
=90	=90	=90	=90	=90	=90	=90	=90	=90	=90
8E\L	8E\L	2r	2r	2r	2r	2r	16gg\LL	8ddd\L]	2r
.	.	.	.	.	.	.	16aa\	.	.
16D\LL	16D\LL	.	.	.	.	.	16ff#\	16ccc\LL	.
16E\JJ	16E\JJ	.	.	.	.	.	16gg\JJ	16bb-\JJ	.
8F#\L	8F#\L	.	.	.	.	.	16aa\LL	8ccc\L	.
.	.	.	.	.	.	.	16ff#\	.	.
16E\LL	16E\LL	.	.	.	.	.	16gg\	8ccc\J	.
16F#\JJ	16F#\JJ	.	.	.	.	.	16aa\JJ	.	.
=91	=91	=91	=91	=91	=91	=91	=91	=91	=91
4G\	4G\	2r	2r	2r	2r	8r	8dd\	16bb-\LL	2r
.	.	.	.	.	.	.	.	16aa\	.
.	.	.	.	.	.	8dd\	8r	16gg\	.
.	.	.	.	.	.	.	.	16aa\JJ	.
8r	8r	.	.	.	.	[4gg\	4r	16bb\LL	.
.	.	.	.	.	.	.	.	16ccc\	.
8G\	8G\	.	.	.	.	.	.	16aa\	.
.	.	.	.	.	.	.	.	16bb\JJ	.
=92	=92	=92	=92	=92	=92	=92	=92	=92	=92
8A\L	8A\L	2r	2r	2r	2r	8gg\L]	2r	16ccc\LL	2r
.	.	.	.	.	.	.	.	16ddd\	.
16G\LL	16G\LL	.	.	.	.	16ff\LL	.	16bb\	.
16A\JJ	16A\JJ	.	.	.	.	16ee\JJ	.	16ccc\JJ	.
8B\L	8B\L	.	.	.	.	8ff\L	.	16ddd\LL	.
.	.	.	.	.	.	.	.	16bb\	.
16A\LL	16A\LL	.	.	.	.	8ff\J	.	16ccc\	.
16B\JJ	16B\JJ	.	.	.	.	.	.	16ddd\JJ	.
=93	=93	=93	=93	=93	=93	=93	=93	=93	=93
4c\	4c\	2r	2r	2r	2r	16ee\LL	2r	8gg\	8r
.	.	.	.	.	.	16dd\	.	.	.
.	.	.	.	.	.	16cc\	.	8r	8gg\
.	.	.	.	.	.	16dd\JJ	.	.	.
8r	8r	.	.	.	.	16ee\LL	.	4r	[4ccc\
.	.	.	.	.	.	16ff\	.	.	.
8C/	8C/	.	.	.	.	16dd\	.	.	.
.	.	.	.	.	.	16ee\JJ	.	.	.
=94	=94	=94	=94	=94	=94	=94	=94	=94	=94
8D/L	8D/L	2r	2r	2r	2r	16ff\LL	2r	2r	8ccc\L]
.	.	.	.	.	.	16gg\	.	.	.
16C/LL	16C/LL	.	.	.	.	16ee\	.	.	16bb-\LL
16D/JJ	16D/JJ	.	.	.	.	16ff\JJ	.	.	16aa\JJ
8E\L	8E\L	.	.	.	.	16gg\LL	.	.	8bb-\L
.	.	.	.	.	.	16ee\	.	.	.
16D\LL	16D\LL	.	.	.	.	16ff\	.	.	8bb-\J
16E\JJ	16E\JJ	.	.	.	.	16gg\JJ	.	.	.
=95	=95	=95	=95	=95	=95	=95	=95	=95	=95
8F\L	8F\L	2r	2r	2r	2r	16cc\LL	2r	2r	16aa\LL
.	.	.	.	.	.	16ff\	.	.	16gg\
8C\J	8C\J	.	.	.	.	16a\	.	.	16ff\
.	.	.	.	.	.	16b-\JJ	.	.	16gg\JJ
[4F\	[4F\	.	.	.	.	16cc\LL	.	.	16aa\LL
.	.	.	.	.	.	16dd\	.	.	16bb-\
.	.	.	.	.	.	16b-\	.	.	16gg\
.	.	.	.	.	.	16cc\JJ	.	.	16aa\JJ
=96	=96	=96	=96	=96	=96	=96	=96	=96	=96
8F\L]	8F\L]	2r	2r	2r	2r	16dd\LL	2r	2r	16bb-\LL
.	.	.	.	.	.	16ee-\	.	.	16ccc\
16E-\LL	16E-\LL	.	.	.	.	16cc\	.	.	16aa\
16D\JJ	16D\JJ	.	.	.	.	16dd\JJ	.	.	16bb-\JJ
8E-\L	8E-\L	.	.	.	.	16g/LL	.	.	16ccc\LL
.	.	.	.	.	.	16f/	.	.	16aa\
8E-\J	8E-\J	.	.	.	.	16g/	.	.	16bb-\
.	.	.	.	.	.	16a/JJ	.	.	16ccc\JJ
=97	=97	=97	=97	=97	=97	=97	=97	=97	=97
8D/L	8D/L	4r	4r	2r	4r	16b-\LL	4r	8r	16ff\LL
.	.	.	.	.	.	16cc\	.	.	16aa\
8BB-/J	8BB-/J	.	.	.	.	16dd\	.	16bb-\LL	16gg\
.	.	.	.	.	.	16ee-\JJ	.	16ccc\JJ	16aa\JJ
8r	8r	8r	[4g\	.	[4bb-\	16ff\LL	8r	16ddd\LL	8bb-\
.	.	.	.	.	.	16gg\	.	16eee-\	.
8GG/	8GG/	8GGG/	.	.	.	16ee-\	8b-\	16ccc\	8bb-\
.	.	.	.	.	.	16ff\JJ	.	16ddd\JJ	.
=98	=98	=98	=98	=98	=98	=98	=98	=98	=98
8C/L	8C/L	8CC/L	8g\L]	2ee-\	4bb-\]	16gg\LL	8ee-\L	16eee-\LL	8bb-\L
.	.	.	.	.	.	16aa\	.	16fff\	.
8C/J	8C/J	8CC/J	16a\LL	.	.	16ff\	8ee-\J	16ddd\	16ccc\LL
.	.	.	16b-\JJ	.	.	16gg\JJ	.	16eee-\JJ	16bb-\JJ
8C/L	8C/L	8CC/L	8cc\L	.	[4aa\	16aa\LL	8ee-\L	16fff\LL	8aa\L
.	.	.	.	.	.	16ff\	.	16ddd\	.
16BB-/LL	16BB-/LL	16BBB-/LL	8c\J	.	.	16gg\	16dd\LL	16eee-\	8aa\J
16AA/JJ	16AA/JJ	16AAA/JJ	.	.	.	16aa\JJ	16cc\JJ	16fff\JJ	.
=99	=99	=99	=99	=99	=99	=99	=99	=99	=99
8BB-/L	8BB-/L	8BBB-/L	4f\	2dd\	4aa\]	16dd\LL	8dd\L	16bb-\LL	8aa\L
.	.	.	.	.	.	16ff\	.	16ddd\	.
8BB-/J	8BB-/J	8BBB-/J	.	.	.	16b-\	8dd\J	16gg\	16bb-\LL
.	.	.	.	.	.	16cc\JJ	.	16aa\JJ	16aa\JJ
8BB-/L	8BB-/L	8BBB-/L	8r	.	[4gg\	16dd\LL	8dd\L	16bb-\LL	8gg\L
.	.	.	.	.	.	16ee-\	.	16ccc\	.
16C/LL	16C/LL	16CC/LL	8b-\	.	.	16cc\	16ee-\LL	16aa\	8gg\J
16BB-/JJ	16BB-/JJ	16BBB-/JJ	.	.	.	16dd\JJ	16dd\JJ	16bb-\JJ	.
=100	=100	=100	=100	=100	=100	=100	=100	=100	=100
8AA/L	8AA/L	8AAA/L	8e-\L	2cc\	4gg\]	16ee-\LL	8cc\L	16ccc\LL	8gg\L
.	.	.	.	.	.	16ff\	.	16ddd\	.
8AA/J	8AA/J	8AAA/J	16f\LL	.	.	16dd\	8cc\J	16bb-\	16aa\LL
.	.	.	16g\JJ	.	.	16ee-\JJ	.	16ccc\JJ	16gg\JJ
8AA/L	8AA/L	8AAA/L	8a\L	.	[4ff\	16ff\LL	8cc\L	16ddd\LL	8ff\L
.	.	.	.	.	.	16dd\	.	16bb-\	.
16GG/LL	16GG/LL	16GGG/LL	8A\J	.	.	16ee-\	16b-\LL	16ccc\	8ff\J
16FF/JJ	16FF/JJ	16FFF/JJ	.	.	.	16ff\JJ	16a\JJ	16ddd\JJ	.
=101	=101	=101	=101	=101	=101	=101	=101	=101	=101
8GG/L	8GG/L	8GGG/L	4d\	2b-\	4ff\]	16b-\LL	8b-\L	16gg\LL	8ff\L
.	.	.	.	.	.	16dd\	.	16bb-\	.
8GG/J	8GG/J	8GGG/J	.	.	.	16g\	8b-\J	16ee-\	16gg\LL
.	.	.	.	.	.	16a-\JJ	.	16ff\JJ	16ff\JJ
8GG/L	8GG/L	8GGG/L	8r	.	[4ee-\	16b-\LL	8b-\L	16gg\LL	8ee-\L
.	.	.	.	.	.	16cc\	.	16aa-\	.
16AA-/LL	16AA-/LL	16AAA-/LL	8g\	.	.	16a-\	16cc\LL	16ff\	8eee-\J
16GG/JJ	16GG/JJ	16GGG/JJ	.	.	.	16b-\JJ	16b-\JJ	16gg\JJ	.
=102	=102	=102	=102	=102	=102	=102	=102	=102	=102
8FF/L	8FF/L	8FFF/L	8c\L	2a-/	4ee-\]	16cc\LL	8a-/L	16aa-\LL	8eee-\L
.	.	.	.	.	.	16dd\	.	16bb-\	.
8FF/J	8FF/J	8FFF/J	8c\	.	.	16b-\	8a-/J	16gg\	16fff\LL
.	.	.	.	.	.	16cc\JJ	.	16aa-\JJ	16eee-\JJ
8FF/L	8FF/L	8FFF/L	8f\	.	[4dd\	16dd\LL	8a-/L	16bb-\LL	8ddd\L
.	.	.	.	.	.	16b-\	.	16gg\	.
16GG/LL	16GG/LL	16GGG/LL	8f\J	.	.	16cc\	16b-/LL	16aa-\	8ddd\J
16FF/JJ	16FF/JJ	16FFF/JJ	.	.	.	16dd\JJ	16a-/JJ	16bb-\JJ	.
=103	=103	=103	=103	=103	=103	=103	=103	=103	=103
4EE-/	4EE-/	4EEE-/	8B-\L	2g/	8dd\L]	16g/LL	16g\LL	4ee-\	8ddd\L
.	.	.	.	.	.	16cc/	16aa-\	.	.
.	.	.	16c\LL	.	8g\J	16b-/	16gg\	.	16eee-\LL
.	.	.	16d\JJ	.	.	16a-/JJ	16ff\JJ	.	16ddd\JJ
8r	8r	8r	8e-\L	.	8cc\L	16g/LL	16ee-\LL	8r	16ccc\LL
.	.	.	.	.	.	16f/	16dd\	.	16bb-\
[8E-\	[8E-\	[8EE-\	8d\J	.	16dd\LL	16e-/	16cc\	8gg\	16aa\
.	.	.	.	.	16ee-\JJ	16d/JJ	16b-\JJ	.	16gg\JJ
=104	=104	=104	=104	=104	=104	=104	=104	=104	=104
8E-\L]	8E-\L]	8EE-\L]	8c\	8f/	8a/	16c/LL	16a/LL	8ccc\L	8ff\
.	.	.	.	.	.	16d/	16b-/	.	.
16F\LL	16F\LL	16FF\LL	8r	8r	8r	16B-/	16g/	8ff\	8r
16E-\JJ	16E-\JJ	16EE-\JJ	.	.	.	16c/JJ	16a/JJ	.	.
8D\L	8D\L	8DD\L	8d\	8f/	8b-\	16d/LL	16b-/LL	8bb-\	8ff\
.	.	.	.	.	.	16e-/	16cc/	.	.
16E-\LL	16E-\LL	16EE-\LL	8r	8r	8r	16c/	16a/	8ff\J	8r
16D\JJ	16D\JJ	16DD\JJ	.	.	.	16d/JJ	16b-/JJ	.	.
=105	=105	=105	=105	=105	=105	=105	=105	=105	=105
8C/L	8C/L	8CC/L	8e-\	8a/	8cc\	16e-/LL	16cc\LL	8aa\L	8ff\
.	.	.	.	.	.	16f/	16dd\	.	.
16D/LL	16D/LL	16DD/LL	8r	8r	8r	16d/	16b-\	8ff\J	8r
16C/JJ	16C/JJ	16CC/JJ	.	.	.	16e-/JJ	16cc\JJ	.	.
8BB-/L	8BB-/L	8BBB-/L	8f\	8b-\	[4dd\	8f/L	16dd\LL	8bb-\L	8ff\
.	.	.	.	.	.	.	16cc\	.	.
8D/J	8D/J	8DD/J	8r	8r	.	[8f/J	16b-\	16ddd\LL	8r
.	.	.	.	.	.	.	16a\JJ	16ccc\JJ	.
=106	=106	=106	=106	=106	=106	=106	=106	=106	=106
8E-/L	8E-/L	8EE-/L	8B-\L	8g/L	8dd\L]	8f/L]	16g/LL	8bb-\L	8gg\
.	.	.	.	.	.	.	16a/	.	.
8C/	8C/	8CC/	8e-\	8g/	16cc\LL	16e-/LL	16b-/	8ggg\	8r
.	.	.	.	.	16b-\JJ	16d/JJ	16cc/JJ	.	.
8F/	8F/	8FF/	8c\	8f/	8.at/L	8.cT/L	8.at/L	8ccc\	8ff\
8FF/J	8FF/J	8FFF/J	8f\J	8f/J	.	.	.	8fff\J	8r
.	.	.	.	.	16b-/Jk	16B-/Jk	16b-/Jk	.	.
=107	=107	=107	=107	=107	=107	=107	=107	=107	=107
8BB-/	8BB-/	4BBB-/	4d\	4f/	4b-/	4B-/	8b-\L	8ddd\	8ff\L
8r	8r	.	.	.	.	.	8ff\J	8r	16bb-\LL
.	.	.	.	.	.	.	.	.	16ccc\JJ
8BB-/	8BB-/	4r	4r	4r	4r	4r	8ffT\L	4r	8ddd\L
8r	8r	.	.	.	.	.	16ee-\LL	.	16ccc\LL
.	.	.	.	.	.	.	16ff\JJ	.	16ddd\JJ
=108	=108	=108	=108	=108	=108	=108	=108	=108	=108
8BB-/	8BB-/	2r	2r	2r	2r	2r	8ggT\L	2r	8eee-\L
8r	8r	.	.	.	.	.	16ff\LL	.	16ddd\LL
.	.	.	.	.	.	.	16ee-\JJ	.	16ccc\JJ
8BB-/	8BB-/	.	.	.	.	.	8ff\L	.	8ddd\L
8r	8r	.	.	.	.	.	8bb-\J	.	16bb-\LL
.	.	.	.	.	.	.	.	.	16ccc\JJ
=109	=109	=109	=109	=109	=109	=109	=109	=109	=109
8BB-/	8BB-/	2r	2r	2r	2r	2r	8ffT\L	2r	8ddd\L
8r	8r	.	.	.	.	.	16dd\LL	.	16bb-\LL
.	.	.	.	.	.	.	16ee-\JJ	.	16ccc\JJ
8BB-/L	8BB-/L	.	.	.	.	.	8ffT\L	.	8ddd\L
16C/LL	16C/LL	.	.	.	.	.	16ee-\LL	.	[8ddd\J
16D/JJ	16D/JJ	.	.	.	.	.	16ff\JJ	.	.
=110	=110	=110	=110	=110	=110	=110	=110	=110	=110
8E-\L	8E-\L	2r	2r	2r	2r	2r	8gg\L	2r	8ddd\]
16D\LL	16D\LL	.	.	.	.	.	16ff\LL	.	4ccc\
16C\JJ	16C\JJ	.	.	.	.	.	16ee-\JJ	.	.
8D\L	8D\L	.	.	.	.	.	16ff\LL	.	.
.	.	.	.	.	.	.	16ee-\	.	.
8G\J	8G\J	.	.	.	.	.	16dd\	.	[8bb-\
.	.	.	.	.	.	.	16ff\JJ	.	.
=111	=111	=111	=111	=111	=111	=111	=111	=111	=111
8C\L	8C\L	2r	2r	2r	2r	2r	16ee-\LL	2r	8bb-\L]
.	.	.	.	.	.	.	16dd\	.	.
8F\	8F\	.	.	.	.	.	16cc\	.	8aa\J
.	.	.	.	.	.	.	16ee-\JJ	.	.
8B-\	8B-\	.	.	.	.	.	16dd\LL	.	16bb-\LL
.	.	.	.	.	.	.	16cc\	.	16aa\
8BB-\J	8BB-\J	.	.	.	.	.	16b-\	.	16gg\
.	.	.	.	.	.	.	16dd\JJ	.	16bb-\JJ
=112	=112	=112	=112	=112	=112	=112	=112	=112	=112
8F\L	8F\L	2r	2r	2r	2r	2r	16cc\LL	2r	16aa\LL
.	.	.	.	.	.	.	16b-\	.	16gg\
8BB-\	8BB-\	.	.	.	.	.	16cc\	.	16aa\
.	.	.	.	.	.	.	16dd\JJ	.	16bb-\JJ
8AA\	8AA\	.	.	.	.	.	16ee-\LL	.	16ccc\LL
.	.	.	.	.	.	.	16dd\	.	16bb-\
8BB-\J	8BB-\J	.	.	.	.	.	16cc\	.	16aa\
.	.	.	.	.	.	.	16b-\JJ	.	16gg\JJ
=113	=113	=113	=113	=113	=113	=113	=113	=113	=113
8F\L	8F\L	2r	2r	2r	2r	2r	8cc/L	8ff\L	8aa\
16A\LL	16A\LL	.	.	.	.	.	16f/LL	8ccc\J	8r
16G\JJ	16G\JJ	.	.	.	.	.	16g/JJ	.	.
8F/L	8F/L	.	.	.	.	.	8a/L	8cccT\L	8f/
8FF/J	8FF/J	.	.	.	.	.	16g/LL	16bb-\LL	8r
.	.	.	.	.	.	.	16a/JJ	16ccc\JJ	.
=114	=114	=114	=114	=114	=114	=114	=114	=114	=114
8BB-\L	8BB-\L	2r	2r	2r	2r	2r	8b-/L	8dddT\L	8f/
8B-\J	8B-\J	.	.	.	.	.	16a/LL	16ccc\LL	8r
.	.	.	.	.	.	.	16g/JJ	16bb-\JJ	.
8F\L	8F\L	.	.	.	.	.	8a/L	8ccc\L	8f/
16A\LL	16A\LL	.	.	.	.	.	16f/LL	8fff\J	8r
16G\JJ	16G\JJ	.	.	.	.	.	16g/JJ	.	.
=115	=115	=115	=115	=115	=115	=115	=115	=115	=115
8F\L	8F\L	2r	2r	2r	2r	2r	8a/L	8cccT\L	8f/
16A\LL	16A\LL	.	.	.	.	.	16f/LL	16aa\LL	8r
16G\JJ	16G\JJ	.	.	.	.	.	16g/JJ	16bb-\JJ	.
8F/L	8F/L	.	.	.	.	.	8a/L	8cccT\L	8f/
8FF/J	8FF/J	.	.	.	.	.	16g/LL	16bb-\LL	8r
.	.	.	.	.	.	.	16a/JJ	16ccc\JJ	.
=116	=116	=116	=116	=116	=116	=116	=116	=116	=116
8BB-/	8BB-/	2r	2r	2r	2r	2r	8b-/	8dddT\L	8ff\
8r	8r	.	.	.	.	.	8r	16ccc\LL	4gg\
.	.	.	.	.	.	.	.	16bb-\JJ	.
8F\	8F\	.	.	.	.	.	8a/	16ccc\LL	.
.	.	.	.	.	.	.	.	16bb-\	.
8r	8r	.	.	.	.	.	8r	16aa\	[8ff\
.	.	.	.	.	.	.	.	16ccc\JJ	.
=117	=117	=117	=117	=117	=117	=117	=117	=117	=117
8G/L	8G/L	2r	2r	2r	2r	2r	8g/	16bb-\LL	8ff\L]
.	.	.	.	.	.	.	.	16aa\	.
8GG/	8GG/	.	.	.	.	.	8r	16gg\	8eet\J
.	.	.	.	.	.	.	.	16bb-\JJ	.
8AA/	8AA/	.	.	.	.	.	8f/	16aa\LL	16ff\LL
.	.	.	.	.	.	.	.	16gg\	16gg\
8BB-/J	8BB-/J	.	.	.	.	.	8r	16ff\	16aa\
.	.	.	.	.	.	.	.	16aa\JJ	16ff\JJ
=118	=118	=118	=118	=118	=118	=118	=118	=118	=118
8C/L	8C/L	2r	2r	2r	2r	16cc\LL	16e/LL	16gg\LL	8ccc\
.	.	.	.	.	.	16ccc\	16d/	16ff\	.
8AA/	8AA/	.	.	.	.	16dd\	16e/	16gg\	8r
.	.	.	.	.	.	16ccc\JJ	16f/JJ	16aa\JJ	.
8GG/	8GG/	.	.	.	.	16ee\LL	16g/LL	16bb-\LL	4r
.	.	.	.	.	.	16ccc\	16f/	16aa\	.
8FF/J	8FF/J	.	.	.	.	16ff\	16e/	16gg\	.
.	.	.	.	.	.	16ccc\JJ	16d/JJ	16ff\JJ	.
=119	=119	=119	=119	=119	=119	=119	=119	=119	=119
8C\L	8C\L	8CC\L	8g\	8cc\	8ee\	16cc\LL	8e\L	8gg\L	8cc/
.	.	.	.	.	.	16ccc\	.	.	.
8G\J	8G\J	8GG\J	8r	8r	4ccc\	16dd\	8bb-\	16g\LL	8r
.	.	.	.	.	.	16ccc\JJ	.	16a\JJ	.
8G\L	8G\L	8GG\L	8g\	8b-\	.	16ee\LL	8gg\	8b-/L	8cc/
.	.	.	.	.	.	16ccc\	.	.	.
16F\LL	16F\LL	16FF\LL	8r	8r	8ee\	16cc\	8ee\J	16a/LL	8r
16G\JJ	16G\JJ	16GG\JJ	.	.	.	16ccc\JJ	.	16b-/JJ	.
=120	=120	=120	=120	=120	=120	=120	=120	=120	=120
8A\L	8A\L	8AA\L	8f\	8a/	8ff\	16ff\LL	8cc\	8cc/L	8cc/
.	.	.	.	.	.	16ccc\	.	.	.
16G\LL	16G\LL	16GG\LL	8r	8r	4ccc\	16dd\	8r	16b-/LL	8r
16F\JJ	16F\JJ	16FF\JJ	.	.	.	16ccc\JJ	.	16a/JJ	.
8G\L	8G\L	8GG\L	8c\	8b-\	.	16ee\LL	8r	8b-/L	8cc/
.	.	.	.	.	.	16ccc\	.	.	.
8c\J	8c\J	8C\J	8r	8r	16ee\LL	16cc\	16ee\LL	16g/LL	8r
.	.	.	.	.	16dd\JJ	16ccc\JJ	16ff\JJ	16a/JJ	.
=121	=121	=121	=121	=121	=121	=121	=121	=121	=121
8G\L	8G\L	8GG\L	8b-\	8cc\	8ee\	16ee\LL	8gg\L	8b-/L	8cc/
.	.	.	.	.	.	16ccc\	.	.	.
16E\LL	16E\LL	16EE\LL	8r	8r	4ccc\	16gg\	8bb-\	16g/LL	8r
16F\JJ	16F\JJ	16FF\JJ	.	.	.	16ccc\JJ	.	16a/JJ	.
8G\L	8G\L	8GG\L	8g\	8b-\	.	16ee\LL	8gg\	8b-/L	8cc/
.	.	.	.	.	.	16ccc\	.	.	.
16F\LL	16F\LL	16FF\LL	8r	8r	8ee\	16cc\	8ee\J	16a/LL	8r
16G\JJ	16G\JJ	16GG\JJ	.	.	.	16ccc\JJ	.	16b-/JJ	.
=122	=122	=122	=122	=122	=122	=122	=122	=122	=122
8A\L	8A\L	8AA\L	8f\	8a/	8ff\	16ff\LL	8cc\	8cc\	8cc/
.	.	.	.	.	.	16ccc\	.	.	.
16G\LL	16G\LL	16GG\LL	8r	8r	4ccc\	16dd\	8r	8r	8r
16F\JJ	16F\JJ	16FF\JJ	.	.	.	16ccc\JJ	.	.	.
16G\LL	16G\LL	16GG\LL	8c\	8b-\	.	16ee\LL	8ee\	8b-\	8cc/
16F\	16F\	16FF\	.	.	.	16ccc\	.	.	.
16E\	16E\	16EE\	8r	8r	8gg\	16cc\	8r	8r	8r
16G\JJ	16G\JJ	16GG\JJ	.	.	.	16ccc\JJ	.	.	.
=123	=123	=123	=123	=123	=123	=123	=123	=123	=123
16F\LL	16F\LL	16FF\LL	8f\	8cc\	8aa\	16aa\LL	8ff\	8a/	8cc/
16E\	16E\	16EE\	.	.	.	16ccc\	.	.	.
16D\	16D\	16DD\	8r	8r	4ccc\	16ff\	8r	8r	8r
16F\JJ	16F\JJ	16FF\JJ	.	.	.	16ccc\JJ	.	.	.
16E\LL	16E\LL	16EE\LL	8g\	8cc\	.	16gg\LL	8gg\	8b-\	8cc/
16F\	16F\	16FF\	.	.	.	16ccc\	.	.	.
16G\	16G\	16GG\	8r	8r	8ee\	16ee\	8r	8r	8r
16E\JJ	16E\JJ	16EE\JJ	.	.	.	16ccc\JJ	.	.	.
=124	=124	=124	=124	=124	=124	=124	=124	=124	=124
16A\LL	16A\LL	16AA\LL	8f\	8cc\	8ff\	16ff\LL	8cc\	8cc\	8cc/
16G\	16G\	16GG\	.	.	.	16ccc\	.	.	.
16F\	16F\	16FF\	8r	8r	4ccc\	16dd\	8r	8r	8r
16A\JJ	16A\JJ	16AA\JJ	.	.	.	16ccc\JJ	.	.	.
16G\LL	16G\LL	16GG\LL	8e\	8b-\	.	16ee\LL	8ee\	8b-\	8cc/
16F\	16F\	16FF\	.	.	.	16ccc\	.	.	.
16E\	16E\	16EE\	8r	8r	8gg\	16cc\	8r	8r	8r
16G\JJ	16G\JJ	16GG\JJ	.	.	.	16ccc\JJ	.	.	.
=125	=125	=125	=125	=125	=125	=125	=125	=125	=125
16F\LL	16F\LL	16FF\LL	8f\	8cc\	8aa\	16aa\LL	8ff\	8a/	8cc/
16E\	16E\	16EE\	.	.	.	16ccc\	.	.	.
16D\	16D\	16DD\	8r	8r	4ccc\	16ff\	8r	8r	8r
16F\JJ	16F\JJ	16FF\JJ	.	.	.	16ccc\JJ	.	.	.
16E\LL	16E\LL	16EE\LL	8g\	8cc\	.	16gg\LL	8gg\	8g/	8cc/
16D\	16D\	16DD\	.	.	.	16ccc\	.	.	.
16C\	16C\	16CC\	8r	8r	8ee\	16ee\	8r	8r	8r
16E\JJ	16E\JJ	16EE\JJ	.	.	.	16ccc\JJ	.	.	.
=126	=126	=126	=126	=126	=126	=126	=126	=126	=126
16D\LL	16D\LL	16DD\LL	4f\	4a/	4ff\	8ff\L	8dd\	8f\	8a/
16E\	16E\	16EE\	.	.	.	.	.	.	.
16F\	16F\	16FF\	.	.	.	16ee\LL	8r	8ccc\L	16aa\LL
16G\JJ	16G\JJ	16GG\JJ	.	.	.	16dd\JJ	.	.	16bb-\JJ
16A\LL	16A\LL	16AA\LL	4f\	4cc\	[4ff\	8cc\	8r	8fff\	16ccc\LL
16B-\	16B-\	16BB-\	.	.	.	.	.	.	16ddd\
16G\	16G\	16GG\	.	.	.	8ff\	8cc\	8fff\J	16bb-\
16A\JJ	16A\JJ	16AA\JJ	.	.	.	.	.	.	16ccc\JJ
=127	=127	=127	=127	=127	=127	=127	=127	=127	=127
16B-\LL	16B-\LL	16BB-\LL	2g\	2b-\	4ff\]	8bb-\L	8gg\L	8fff\L	16ddd\LL
16c\	16c\	16C\	.	.	.	.	.	.	16eee\
16A\	16A\	16AA\	.	.	.	8bb-\J	8gg\J	16ggg\LL	16ccc\
16B-\JJ	16B-\JJ	16BB-\JJ	.	.	.	.	.	16fff\JJ	16ddd\JJ
16c\LL	16c\LL	16C\LL	.	.	[4ee\	8bb-\L	8gg\L	8eee\L	16eee\LL
16A\	16A\	16AA\	.	.	.	.	.	.	16ccc\
16B-\	16B-\	16BB-\	.	.	.	16aa\LL	16ff\LL	8eee\J	16ddd\
16c\JJ	16c\JJ	16C\JJ	.	.	.	16gg\JJ	16ee\JJ	.	16eee\JJ
=128	=128	=128	=128	=128	=128	=128	=128	=128	=128
16F\LL	16F\LL	16FF\LL	2f\	2a/	4ee\]	8aa\L	8ff\L	8eee\L	16aa\LL
16A\	16A\	16AA\	.	.	.	.	.	.	16ccc\
16D\	16D\	16DD\	.	.	.	8aa\J	8ff\J	16fff\LL	16ff\
16E\JJ	16E\JJ	16EE\JJ	.	.	.	.	.	16eee\JJ	16gg\JJ
16F\LL	16F\LL	16FF\LL	.	.	[4dd\	8aa\L	8ff\L	8ddd\L	16aa\LL
16G\	16G\	16GG\	.	.	.	.	.	.	16bb-\
16E\	16E\	16EE\	.	.	.	16bb-\LL	16gg\LL	8ddd\J	16gg\
16F\JJ	16F\JJ	16FF\JJ	.	.	.	16aa\JJ	16ff\JJ	.	16aa\JJ
=129	=129	=129	=129	=129	=129	=129	=129	=129	=129
16G\LL	16G\LL	16GG\LL	2e\	2g/	4dd\]	8gg\L	8ee\L	8ddd\L	16bb-\LL
16A\	16A\	16AA\	.	.	.	.	.	.	16ccc\
16F\	16F\	16FF\	.	.	.	8gg\J	8ee\J	16eee\LL	16aa\
16G\JJ	16G\JJ	16GG\JJ	.	.	.	.	.	16ddd\JJ	16bb-\JJ
16A\LL	16A\LL	16AA\LL	.	.	[4cc\	8gg\L	8ee\L	8ccc\L	16ccc\LL
16F\	16F\	16FF\	.	.	.	.	.	.	16aa\
16G\	16G\	16GG\	.	.	.	16ff\LL	16dd\LL	8ccc\J	16bb-\
16A\JJ	16A\JJ	16AA\JJ	.	.	.	16ee\JJ	16cc\JJ	.	16ccc\JJ
=130	=130	=130	=130	=130	=130	=130	=130	=130	=130
16D\LL	16D\LL	16DD\LL	2d\	2f/	4cc\]	8ff\L	8dd\L	8ccc\L	16ff\LL
16F\	16F\	16FF\	.	.	.	.	.	.	16aa\
16BB-\	16BB-\	16BBB-\	.	.	.	8ff\J	8dd\J	16ddd\LL	16gg\
16C\JJ	16C\JJ	16CC\JJ	.	.	.	.	.	16ccc\JJ	16aa\JJ
16D\LL	16D\LL	16DD\LL	.	.	[4b-\	8ff\L	8dd\L	8bb-\L	16bb-\LL
16E\	16E\	16EE\	.	.	.	.	.	.	16ccc\
16C\	16C\	16CC\	.	.	.	16gg\LL	16ee\LL	8bb-\J	16aa\
16D\JJ	16D\JJ	16DD\JJ	.	.	.	16ff\JJ	16dd\JJ	.	16bb-\JJ
=131	=131	=131	=131	=131	=131	=131	=131	=131	=131
16E\LL	16E\LL	16EE\LL	2c\	4g/	4b-\]	8ee\L	8cc\L	8bb-\L	16ccc\LL
16F\	16F\	16FF\	.	.	.	.	.	.	16aa\
16D\	16D\	16DD\	.	.	.	16aa\LL	8cc\J	16ccc\LL	16ff\
16E\JJ	16E\JJ	16EE\JJ	.	.	.	16gg\JJ	.	16bb-\JJ	16gg\JJ
16F\LL	16F\LL	16FF\LL	.	4f/	[4a/	16ff\LL	8cc\L	8aa\L	16aa\LL
16D\	16D\	16DD\	.	.	.	16ee-\	.	.	16bb-\
16E-\	16E-\	16EE-\	.	.	.	16dd\	16b-\LL	8aa\J	16ccc\
16F\JJ	16F\JJ	16FF\JJ	.	.	.	16cc\JJ	16a\JJ	.	16aa\JJ
=132	=132	=132	=132	=132	=132	=132	=132	=132	=132
4BB-/	4BB-/	4BBB-/	8d\L	8f/L	8a\L]	4dd\	16b-\LL	8aa\L	16ddd\LL
.	.	.	.	.	.	.	16gg\	.	16eee-\
.	.	.	8f\	8a/J	8dd\J	.	16ff\	16bb-\LL	16ddd\
.	.	.	.	.	.	.	16ee-\JJ	16aa\JJ	16ccc\JJ
8r	8r	8r	8b-\	4dd\	8gg\L	8r	16dd\LL	16gg\LL	16bb-\LL
.	.	.	.	.	.	.	16cc\	16ff\	16aa\
[8B-\	[8B-\	[8BB-\	8a\J	.	16aa\LL	8d/	16b-\	16ee\	16gg\
.	.	.	.	.	16bb-\JJ	.	16a\JJ	16dd\JJ	16ff\JJ
=133	=133	=133	=133	=133	=133	=133	=133	=133	=133
8B-\L]	8B-\L]	8BB-\L]	8g\	8cc\	8ee\	8g/L	16g/LL	16ee\LL	8ccc\
.	.	.	.	.	.	.	16a/	16ff\	.
16c\LL	16c\LL	16C\LL	8r	8r	8r	8c/	16f/	16dd\	8r
16B-\JJ	16B-\JJ	16BB-\JJ	.	.	.	.	16g/JJ	16ee\JJ	.
8A\L	8A\L	8AA\L	8a\	8cc\	8ff\	8f/	16a/LL	16ff\LL	8ccc\
.	.	.	.	.	.	.	16b-/	16gg\	.
16B-\LL	16B-\LL	16BB-\LL	8r	8r	8r	8c/J	16g/	16ee\	8r
16A\JJ	16A\JJ	16AA\JJ	.	.	.	.	16a/JJ	16ff\JJ	.
=134	=134	=134	=134	=134	=134	=134	=134	=134	=134
8G\L	8G\L	8GG\L	8b-\	8ee\	8gg\	8e/L	16b-\LL	16gg\LL	8ccc\
.	.	.	.	.	.	.	16cc\	16aa\	.
16A\LL	16A\LL	16AA\LL	8r	8r	8r	8c/J	16a\	16ff\	8r
16G\JJ	16G\JJ	16GG\JJ	.	.	.	.	16b-\JJ	16gg\JJ	.
8F\L	8F\L	8FF\L	8cc\	8ff\	[4aa\	8f/L	8cc\L	16aa\LL	8ccc\
.	.	.	.	.	.	.	.	16gg\	.
8AA\J	8AA\J	8AAA\J	8r	8r	.	16a/LL	[8cc\J	16ff\	8r
.	.	.	.	.	.	16g/JJ	.	16ee\JJ	.
=135	=135	=135	=135	=135	=135	=135	=135	=135	=135
8BB-/L	8BB-/L	8BBB-/L	8f\L	8dd\L	8aa\L]	8f/L	8cc\L]	16dd\LL	2r
.	.	.	.	.	.	.	.	16ee\	.
8GG/	8GG/	8GGG/	8b-\	8dd\	16gg\LL	8dd/	16b-\LL	16ff\	.
.	.	.	.	.	16ff\JJ	.	16a\JJ	16gg\JJ	.
8C/	8C/	8CC/	8g\	8cc\	8.eet\L	8e/	8.gT/L	8.eet\L	.
8CC/J	8CC/J	8CCC/J	8g\J	8cc\J	.	8cc/J	.	.	.
.	.	.	.	.	16ff\Jk	.	16f/Jk	16ff\Jk	.
=136	=136	=136	=136	=136	=136	=136	=136	=136	=136
8FF/	8FF/	8FFF/	8a\	8cc\	8ff\	8a/L	8f/	8ff\	8ff\L
8r	8r	8r	8r	8r	8r	16f/LL	8r	8r	8ccc\J
.	.	.	.	.	.	16g/JJ	.	.	.
8FF/	8FF/	8FFF/	8cc\	8ee-\	8ff\	8a/L	8cc\	8ee-\	8cccT\L
8r	8r	8r	8r	8r	8r	16g/LL	8r	8r	16bb-\LL
.	.	.	.	.	.	16a/JJ	.	.	16ccc\JJ
=137	=137	=137	=137	=137	=137	=137	=137	=137	=137
8FF/	8FF/	8FFF/	8b-\	8dd\	8ff\	8b-/L	8b-\	8dd\	8ddd\L
8r	8r	8r	8r	8r	8r	16a/LL	8r	8r	16ccc\LL
.	.	.	.	.	.	16g/JJ	.	.	16bb-\JJ
8FF/	8FF/	8FFF/	8f\	8a/	8ff\	8a/L	8ff\	8aa\	8ccc\L
8r	8r	8r	8r	8r	8r	16f/LL	8r	8r	8fff\J
.	.	.	.	.	.	16g/JJ	.	.	.
=138	=138	=138	=138	=138	=138	=138	=138	=138	=138
8FF/	8FF/	8FFF/	8a\	8cc\	8ff\	8a/L	8a/	8ff\	8cccT\L
8r	8r	8r	8r	8r	8r	16f/LL	8r	8r	16aa\LL
.	.	.	.	.	.	16g/JJ	.	.	16bb-\JJ
8FF/	8FF/	8FFF/	8cc\	8ee-\	8ff\	8a/L	8cc\	8ee-\	8cccT\L
8r	8r	8r	8r	8r	8r	16g/LL	8r	8r	16bb-\LL
.	.	.	.	.	.	16a/JJ	.	.	16ccc\JJ
=139	=139	=139	=139	=139	=139	=139	=139	=139	=139
8FF/	8FF/	8FFF/	8b-\	8dd\	8ff\	8b-/L	8b-\	8dd\	8ddd\L
8r	8r	8r	8r	8r	8r	16a/LL	8r	8r	16ccc\LL
.	.	.	.	.	.	16g/JJ	.	.	16bb-\JJ
8FF;/	8FF;/	8FFF;/	8f;\	8a;/	8ff;\	8f;/	8ff;\	8aa;\	8ccc;\
8r	8r	8r	8r	8r	8r	8r	8r	8r	8r
==	==	==	==	==	==	==	==	==	==
*-	*-	*-	*-	*-	*-	*-	*-	*-	*-
!!!CDT: 1685/3//-1750/7/28
!!!OCY: Deutschland
!!!ODE: His Royal Highness Christian Ludwig, Margrave of Brandenburg.
!!!ODT: 1717//-1718//
!!!OPC: ?Coethen; ?Cothen; ?Co2then
!!!PPR: Peters
!!!PDT: 1850
!!!PPP: Leipzig
!!!AGN: concerto grosso
!!!AST: baroque, orchestral
!!!AMT: simple duple
!!!SCA: Bach-Werke-Verzeichnis
!!!YOR: Bach Gesellschaft, xix,33
!!!YOY: 1871; although imprint says 1869
!!!AIN: cemba; clavi
!!!EEV: 1.0
!!!RDT: 1994 February 19
!!!YER: 1994 October 22
!!!YEN: United States of America
!!!EFL: 3/3
!!!EED: W.B. Hewlett
!!!VTS: 651653135
